; generated by Slic3r 1.2.9 on 2018-11-05 at 15:39:19

; external perimeters extrusion width = 0.40mm
; perimeters extrusion width = 0.67mm
; infill extrusion width = 0.67mm
; solid infill extrusion width = 0.67mm
; top infill extrusion width = 0.67mm
; support material extrusion width = 0.40mm

M107
M190 S65 ; set bed temperature
M104 S205 ; set temperature
G28 ; home all axes
G1 Z5 F5000 ; lift nozzle

M109 S205 ; wait for temperature to be reached
G21 ; set units to millimeters
G90 ; use absolute coordinates
M82 ; use absolute distances for extrusion
G92 E0
G1 Z0.200 F7800.000
G1 E-1.00000 F2100.00000
G92 E0
G1 X79.647 Y80.940 F7800.000
G1 E1.00000 F2100.00000
G1 X81.220 Y79.396 E1.06545 F1800.000
G1 X81.789 Y78.901 E1.08784
G1 X84.395 Y76.888 E1.18562
G1 X85.048 Y76.446 E1.20902
G1 X86.182 Y75.776 E1.24815
G1 X87.454 Y75.073 E1.29129
G1 X87.955 Y74.825 E1.30789
G1 X90.013 Y73.920 E1.37464
G1 X90.711 Y73.662 E1.39672
G1 X91.654 Y73.374 E1.42600
G1 X93.655 Y72.812 E1.48772
G1 X94.244 Y72.677 E1.50567
G1 X96.000 Y72.361 E1.55864
G1 X97.595 Y72.176 E1.60630
G1 X99.590 Y72.068 E1.66564
G1 X100.795 Y72.075 E1.70142
G1 X103.257 Y72.240 E1.77466 F1800.000
G1 X103.862 Y72.319 E1.79279
G1 X104.739 Y72.479 E1.81925
G1 X106.970 Y72.949 E1.88694
G1 X107.495 Y73.085 E1.90304
G1 X108.880 Y73.508 E1.94606
G1 X109.742 Y73.796 E1.97303
G1 X110.269 Y74.001 E1.98983
G1 X112.300 Y74.906 E2.05585
G1 X113.531 Y75.550 E2.09709
G1 X115.456 Y76.700 E2.16366
G1 X116.000 Y77.072 E2.18324
G1 X117.733 Y78.395 E2.24799
G1 X118.095 Y78.693 E2.26191
G1 X118.857 Y79.378 E2.29231
G1 X120.124 Y80.616 E2.34491
G1 X120.896 Y81.449 E2.37865
G1 X121.396 Y82.045 E2.40175
G1 X122.450 Y83.342 E2.45136
G1 X122.872 Y83.928 E2.47281
G1 X124.227 Y86.066 E2.54796
G1 X124.560 Y86.662 E2.56823
G1 X124.985 Y87.532 E2.59697
G1 X125.787 Y89.239 E2.65296
G1 X126.041 Y89.875 E2.67331
G1 X126.685 Y91.779 E2.73298
G1 X126.826 Y92.257 E2.74779
G1 X127.139 Y93.508 E2.78607
G1 X127.445 Y94.938 E2.82949
G1 X127.644 Y96.135 E2.86551
G1 X127.705 Y96.614 E2.87985
G1 X127.848 Y98.342 E2.93135
G1 X127.893 Y99.847 E2.97604
G1 X127.843 Y101.918 E3.03756
G1 X127.781 Y102.635 E3.05891
G1 X127.460 Y104.870 E3.12595
G1 X127.322 Y105.556 E3.14675
G1 X126.471 Y108.849 E3.24771
G1 X125.999 Y110.106 E3.28757
G1 X123.829 Y114.436 E3.43139
G1 X123.182 Y115.467 E3.46755
G1 X120.896 Y118.434 E3.57876
G1 X120.176 Y119.222 E3.61043
G1 X117.198 Y121.976 E3.73086
G1 X116.433 Y122.581 E3.75982
G1 X115.227 Y123.393 E3.80299
G1 X113.870 Y124.241 E3.85052
G1 X113.419 Y124.496 E3.86589
G1 X112.196 Y125.122 E3.90668
G1 X111.143 Y125.628 E3.94136
G1 X110.602 Y125.858 E3.95883
G1 X108.639 Y126.587 E4.02101
G1 X108.071 Y126.769 E4.03872
G1 X106.968 Y127.061 E4.07259
G1 X105.155 Y127.491 E4.12791
G1 X104.441 Y127.617 E4.14943
G1 X101.826 Y127.919 E4.22759
G1 X101.146 Y127.955 E4.24782
G1 X98.749 Y127.955 E4.31897
G1 X98.068 Y127.919 E4.33922
G1 X97.310 Y127.837 E4.36186
G1 X95.732 Y127.649 E4.40906
G1 X94.597 Y127.453 E4.44325
G1 X92.099 Y126.853 E4.51954
G1 X91.404 Y126.639 E4.54111
G1 X89.384 Y125.888 E4.60511
G1 X88.041 Y125.295 E4.64870
G1 X86.135 Y124.317 E4.71231
G1 X85.516 Y123.954 E4.73361
G1 X83.437 Y122.549 E4.80810
G1 X82.513 Y121.839 E4.84271
G1 X80.839 Y120.397 E4.90831
G1 X80.325 Y119.900 E4.92955
G1 X78.749 Y118.184 E4.99873
G1 X78.357 Y117.712 E5.01695
G1 X76.845 Y115.668 E5.09242
G1 X75.996 Y114.329 E5.13950
G1 X75.159 Y112.811 E5.19096
G1 X74.590 Y111.632 E5.22983
G1 X73.734 Y109.548 E5.29674
G1 X73.525 Y108.948 E5.31561
G1 X72.916 Y106.797 E5.38196
G1 X72.522 Y104.942 E5.43828
G1 X72.299 Y103.388 E5.48488
G1 X72.170 Y102.053 E5.52473
G1 X72.098 Y100.123 E5.58206
G1 X72.106 Y99.561 E5.59876
G1 X72.213 Y97.754 E5.65248
G1 X72.269 Y97.209 E5.66876
G1 X72.598 Y94.959 E5.73627
G1 X72.759 Y94.190 E5.75961
G1 X73.734 Y90.650 E5.86864
G1 X74.180 Y89.490 E5.90552
G1 X76.328 Y85.203 E6.04790
G1 X77.075 Y84.046 E6.08879
G1 X79.165 Y81.471 E6.18725
G1 X79.607 Y80.985 E6.20676
G1 E5.20676 F2100.00000
G92 E0
G1 X112.880 Y113.734 F7800.000
G1 E1.00000 F2100.00000
G1 X111.060 Y115.240 E1.07016 F1800.000
G1 X109.065 Y116.506 E1.14032
G1 X106.927 Y117.512 E1.21048
G1 X104.679 Y118.242 E1.28063
G1 X102.358 Y118.685 E1.35079
G1 X100.000 Y118.834 E1.42095
G1 X97.642 Y118.685 E1.49111
G1 X95.321 Y118.242 E1.56127
G1 X93.073 Y117.512 E1.63143
G1 X90.935 Y116.506 E1.70158
G1 X88.940 Y115.240 E1.77174
G1 X87.120 Y113.734 E1.84190
G1 X85.502 Y112.011 E1.91206
G1 X84.113 Y110.100 E1.98222
G1 X82.975 Y108.029 E2.05238
G1 X82.105 Y105.832 E2.12253
G1 X81.517 Y103.543 E2.19269
G1 X81.221 Y101.199 E2.26285
G1 X81.221 Y98.836 E2.33301
G1 X81.517 Y96.492 E2.40317
G1 X82.105 Y94.203 E2.47333
G1 X82.975 Y92.006 E2.54349
G1 X84.113 Y89.935 E2.61364
G1 X85.502 Y88.024 E2.68380
G1 X87.120 Y86.301 E2.75396
G1 X88.940 Y84.795 E2.82412
G1 X90.935 Y83.529 E2.89428
G1 X93.073 Y82.523 E2.96444
G1 X95.321 Y81.793 E3.03459
G1 X97.642 Y81.350 E3.10475
G1 X100.000 Y81.202 E3.17491 F1800.000
G1 X102.358 Y81.350 E3.24507
G1 X104.679 Y81.793 E3.31523
G1 X106.927 Y82.523 E3.38539
G1 X109.065 Y83.529 E3.45554
G1 X111.060 Y84.795 E3.52570
G1 X112.880 Y86.301 E3.59586
G1 X114.498 Y88.024 E3.66602
G1 X115.887 Y89.935 E3.73618
G1 X117.025 Y92.006 E3.80634
G1 X117.895 Y94.203 E3.87650
G1 X118.483 Y96.492 E3.94665
G1 X118.779 Y98.836 E4.01681
G1 X118.779 Y101.199 E4.08697
G1 X118.483 Y103.543 E4.15713
G1 X117.895 Y105.832 E4.22729
G1 X117.025 Y108.029 E4.29745
G1 X115.887 Y110.100 E4.36760
G1 X114.498 Y112.011 E4.43776
G1 X112.921 Y113.690 E4.50614
G1 X112.635 Y113.473 F7800.000
G1 X110.849 Y114.951 E4.57496 F1800.000
G1 X108.892 Y116.193 E4.64379
G1 X106.795 Y117.180 E4.71261
G1 X104.590 Y117.896 E4.78144
G1 X102.313 Y118.330 E4.85026
G1 X100.000 Y118.476 E4.91909
G1 X97.687 Y118.330 E4.98791
G1 X95.410 Y117.896 E5.05673
G1 X93.205 Y117.180 E5.12556
G1 X91.108 Y116.193 E5.19438
G1 X89.151 Y114.951 E5.26321
G1 X87.364 Y113.473 E5.33203
G1 X85.778 Y111.783 E5.40086
G1 X84.415 Y109.908 E5.46968
G1 X83.299 Y107.877 E5.53851
G1 X82.445 Y105.721 E5.60733
G1 X81.869 Y103.476 E5.67615
G1 X81.578 Y101.177 E5.74498
G1 X81.578 Y98.859 E5.81380
G1 X81.869 Y96.559 E5.88263
G1 X82.445 Y94.314 E5.95145
G1 X83.299 Y92.158 E6.02028
G1 X84.415 Y90.127 E6.08910
G1 X85.778 Y88.252 E6.15792
G1 X87.365 Y86.562 E6.22675
G1 X89.151 Y85.085 E6.29557
G1 X91.108 Y83.843 E6.36440
G1 X93.205 Y82.856 E6.43322
G1 X95.410 Y82.139 E6.50205
G1 X97.687 Y81.705 E6.57087
G1 X100.000 Y81.559 E6.63969 F1800.000
G1 X102.313 Y81.705 E6.70852
G1 X104.590 Y82.139 E6.77734
G1 X106.795 Y82.856 E6.84617
G1 X108.892 Y83.843 E6.91499
G1 X110.849 Y85.085 E6.98382
G1 X112.635 Y86.562 E7.05264
G1 X114.222 Y88.252 E7.12147
G1 X115.585 Y90.127 E7.19029
G1 X116.701 Y92.158 E7.25911
G1 X117.555 Y94.314 E7.32794
G1 X118.131 Y96.559 E7.39676
G1 X118.422 Y98.859 E7.46559
G1 X118.422 Y101.177 E7.53441
G1 X118.131 Y103.476 E7.60324
G1 X117.555 Y105.721 E7.67206
G1 X116.701 Y107.877 E7.74088
G1 X115.585 Y109.908 E7.80971
G1 X114.222 Y111.783 E7.87853
G1 X112.677 Y113.429 E7.94558
G1 X112.391 Y113.212 F7800.000
G1 X110.639 Y114.661 E8.01307 F1800.000
G1 X108.720 Y115.879 E8.08056
G1 X106.663 Y116.847 E8.14805
G1 X104.501 Y117.549 E8.21554
G1 X102.269 Y117.975 E8.28303
G1 X100.000 Y118.118 E8.35052
G1 X97.731 Y117.975 E8.41801
G1 X95.499 Y117.549 E8.48550
G1 X93.337 Y116.847 E8.55299
G1 X91.280 Y115.879 E8.62048
G1 X89.361 Y114.661 E8.68797
G1 X87.609 Y113.212 E8.75546
G1 X86.053 Y111.555 E8.82295
G1 X84.717 Y109.716 E8.89044
G1 X83.622 Y107.724 E8.95793
G1 X82.785 Y105.611 E9.02542
G1 X82.220 Y103.409 E9.09291
G1 X81.935 Y101.154 E9.16040
G1 X81.935 Y98.881 E9.22789
G1 X82.220 Y96.626 E9.29538
G1 X82.785 Y94.424 E9.36287
G1 X83.622 Y92.311 E9.43036
G1 X84.717 Y90.319 E9.49785
G1 X86.053 Y88.480 E9.56534
G1 X87.609 Y86.823 E9.63283
G1 X89.361 Y85.374 E9.70032
G1 X91.280 Y84.156 E9.76781
G1 X93.337 Y83.188 E9.83530
G1 X95.499 Y82.486 E9.90280
G1 X97.731 Y82.060 E9.97029
G1 X100.000 Y81.917 E10.03778 F1800.000
G1 X102.269 Y82.060 E10.10527
G1 X104.501 Y82.486 E10.17276
G1 X106.663 Y83.188 E10.24025
G1 X108.720 Y84.156 E10.30774
G1 X110.639 Y85.374 E10.37523
G1 X112.391 Y86.823 E10.44272
G1 X113.947 Y88.480 E10.51021
G1 X115.283 Y90.319 E10.57770
G1 X116.378 Y92.311 E10.64519
G1 X117.214 Y94.424 E10.71268
G1 X117.780 Y96.626 E10.78017
G1 X118.065 Y98.881 E10.84766
G1 X118.065 Y101.154 E10.91515
G1 X117.780 Y103.409 E10.98264
G1 X117.214 Y105.611 E11.05013
G1 X116.378 Y107.724 E11.11762
G1 X115.283 Y109.716 E11.18511
G1 X113.947 Y111.555 E11.25260
G1 X112.432 Y113.168 E11.31831
G1 X112.474 Y113.603 F7800.000
G1 X113.022 Y113.945 F7800.000
G1 X111.642 Y115.133 E11.37237 F1800.000
G1 X109.703 Y116.451 E11.44198
G1 X107.693 Y117.482 E11.50906
G1 X105.574 Y118.270 E11.57620
G1 X103.376 Y118.801 E11.64333
G1 X101.131 Y119.068 E11.71047
G1 X98.869 Y119.068 E11.77760
G1 X96.624 Y118.801 E11.84474
G1 X94.426 Y118.270 E11.91188
G1 X92.307 Y117.482 E11.97901
G1 X90.295 Y116.450 E12.04615
G1 X88.420 Y115.187 E12.11328
G1 X86.707 Y113.711 E12.18042
G1 X85.181 Y112.042 E12.24755
G1 X83.910 Y110.272 E12.31226
G1 X82.770 Y108.223 E12.38186
G1 X81.921 Y106.130 E12.44894
G1 X81.325 Y103.949 E12.51608
G1 X80.991 Y101.712 E12.58322
G1 X80.924 Y99.452 E12.65035
G1 X81.125 Y97.200 E12.71749
G1 X81.574 Y95.067 E12.78219
G1 X82.316 Y92.843 E12.85180
G1 X83.287 Y90.804 E12.91888
G1 X84.494 Y88.892 E12.98601
G1 X85.919 Y87.136 E13.05315
G1 X87.541 Y85.561 E13.12028
G1 X89.339 Y84.189 E13.18742
G1 X91.286 Y83.039 E13.25456
G1 X93.355 Y82.128 E13.32169
G1 X95.517 Y81.467 E13.38883
G1 X97.743 Y81.067 E13.45596
G1 X100.000 Y80.933 E13.52310
G1 X102.175 Y81.062 E13.58780
G1 X104.484 Y81.468 E13.65741 F1800.000
G1 X106.645 Y82.128 E13.72449
G1 X108.714 Y83.039 E13.79162
G1 X110.661 Y84.189 E13.85876
G1 X112.459 Y85.561 E13.92590
G1 X114.081 Y87.136 E13.99303
G1 X115.506 Y88.892 E14.06017
G1 X116.713 Y90.804 E14.12730
G1 X117.685 Y92.845 E14.19444
G1 X118.409 Y94.987 E14.26157
G1 X118.875 Y97.200 E14.32871
G1 X119.076 Y99.452 E14.39585
G1 X119.009 Y101.712 E14.46298
G1 X118.675 Y103.949 E14.53012
G1 X118.079 Y106.130 E14.59725
G1 X117.229 Y108.225 E14.66439
G1 X116.138 Y110.205 E14.73152
G1 X114.819 Y112.042 E14.79866
G1 X113.293 Y113.711 E14.86580
G1 X113.067 Y113.905 E14.87465
G1 X113.255 Y114.215 F7800.000
G1 X111.860 Y115.417 E14.92933 F1800.000
G1 X109.886 Y116.758 E15.00019
G1 X107.838 Y117.810 E15.06855
G1 X105.678 Y118.612 E15.13694
G1 X103.439 Y119.153 E15.20534
G1 X101.152 Y119.425 E15.27373
G1 X98.848 Y119.425 E15.34213
G1 X96.561 Y119.153 E15.41052
G1 X94.322 Y118.612 E15.47891
G1 X92.162 Y117.810 E15.54731
G1 X90.113 Y116.758 E15.61570
G1 X88.203 Y115.471 E15.68410
G1 X86.458 Y113.967 E15.75249
G1 X84.903 Y112.268 E15.82089
G1 X83.608 Y110.463 E15.88683
G1 X82.447 Y108.378 E15.95769
G1 X81.582 Y106.244 E16.02605
G1 X80.975 Y104.022 E16.09444
G1 X80.635 Y101.744 E16.16284
G1 X80.567 Y99.441 E16.23123
G1 X80.771 Y97.147 E16.29963
G1 X81.229 Y94.974 E16.36557
G1 X81.984 Y92.710 E16.43643
G1 X82.974 Y90.631 E16.50479
G1 X84.204 Y88.683 E16.57319
G1 X85.655 Y86.895 E16.64158
G1 X87.308 Y85.290 E16.70997
G1 X89.139 Y83.892 E16.77837
G1 X91.122 Y82.721 E16.84676
G1 X93.230 Y81.792 E16.91516
G1 X95.433 Y81.120 E16.98355
G1 X97.701 Y80.712 E17.05194
G1 X100.000 Y80.576 E17.12034
G1 X102.217 Y80.707 E17.18628
G1 X104.568 Y81.120 E17.25714 F1800.000
G1 X106.770 Y81.792 E17.32550
G1 X108.878 Y82.721 E17.39390
G1 X110.861 Y83.892 E17.46229
G1 X112.692 Y85.290 E17.53069
G1 X114.345 Y86.895 E17.59908
G1 X115.796 Y88.683 E17.66747
G1 X117.026 Y90.631 E17.73587
G1 X118.017 Y92.711 E17.80426
G1 X118.754 Y94.893 E17.87266
G1 X119.229 Y97.147 E17.94105
G1 X119.433 Y99.441 E18.00944
G1 X119.365 Y101.744 E18.07784
G1 X119.025 Y104.022 E18.14623
G1 X118.418 Y106.244 E18.21463
G1 X117.552 Y108.379 E18.28302
G1 X116.440 Y110.396 E18.35141
G1 X115.097 Y112.268 E18.41981
G1 X113.542 Y113.967 E18.48820
G1 X113.300 Y114.176 E18.49769
G1 X113.488 Y114.486 F7800.000
G1 X112.078 Y115.701 E18.55297 F1800.000
G1 X110.068 Y117.066 E18.62509
G1 X107.982 Y118.137 E18.69473
G1 X105.783 Y118.954 E18.76438
G1 X103.502 Y119.505 E18.83404
G1 X101.173 Y119.782 E18.90369
G1 X98.827 Y119.782 E18.97334
G1 X96.498 Y119.505 E19.04299
G1 X94.217 Y118.954 E19.11265
G1 X92.018 Y118.137 E19.18230
G1 X89.931 Y117.066 E19.25195
G1 X87.986 Y115.755 E19.32160
G1 X86.209 Y114.224 E19.39126
G1 X84.625 Y112.493 E19.46091
G1 X83.306 Y110.655 E19.52809
G1 X82.125 Y108.532 E19.60021
G1 X81.243 Y106.359 E19.66985
G1 X80.625 Y104.096 E19.73950
G1 X80.279 Y101.776 E19.80915
G1 X80.209 Y99.431 E19.87881
G1 X80.417 Y97.094 E19.94846
G1 X80.883 Y94.880 E20.01564
G1 X81.652 Y92.576 E20.08776
G1 X82.661 Y90.458 E20.15740
G1 X83.913 Y88.475 E20.22705
G1 X85.391 Y86.653 E20.29670
G1 X87.074 Y85.019 E20.36636
G1 X88.939 Y83.596 E20.43601
G1 X90.959 Y82.403 E20.50566
G1 X93.106 Y81.457 E20.57531
G1 X95.349 Y80.772 E20.64497
G1 X97.658 Y80.357 E20.71462
G1 X100.000 Y80.218 E20.78427
G1 X102.259 Y80.352 E20.85145
G1 X104.651 Y80.772 E20.92357 F1800.000
G1 X106.894 Y81.457 E20.99321
G1 X109.041 Y82.403 E21.06286
G1 X111.061 Y83.596 E21.13252
G1 X112.926 Y85.019 E21.20217
G1 X114.609 Y86.653 E21.27182
G1 X116.087 Y88.475 E21.34147
G1 X117.339 Y90.458 E21.41113
G1 X118.348 Y92.576 E21.48078
G1 X119.099 Y94.799 E21.55043
G1 X119.583 Y97.094 E21.62008
G1 X119.791 Y99.431 E21.68974
G1 X119.721 Y101.776 E21.75939
G1 X119.375 Y104.096 E21.82904
G1 X118.757 Y106.359 E21.89869
G1 X117.875 Y108.533 E21.96835
G1 X116.743 Y110.587 E22.03800
G1 X115.375 Y112.493 E22.10765
G1 X113.791 Y114.224 E22.17730
G1 X113.533 Y114.446 E22.18742
G1 X113.110 Y114.354 F7800.000
G1 Z0.200 F7800.000
G1 X114.051 Y114.975 F7800.000
G1 X112.882 Y117.308 E22.26490 F1800.000
G1 X112.645 Y116.187 F7800.000
G1 X111.676 Y118.121 E22.32910 F1800.000
G1 X111.424 Y117.030 E22.36233
G1 X110.516 Y118.841 E22.42245
G1 X110.250 Y117.779 E22.45497
G1 X109.441 Y119.393 E22.50857
G1 X109.174 Y118.331 E22.54108
G1 X108.388 Y119.899 E22.59317
G1 X107.407 Y120.263 E22.62426
G1 X108.120 Y118.840 E22.67154
G1 X107.139 Y119.204 E22.70263
G1 X106.425 Y120.628 E22.74991
G1 X105.502 Y120.875 E22.77828
G1 X106.157 Y119.569 E22.82166
G1 X105.241 Y119.803 E22.84974
G1 X104.889 Y120.506 E22.87308
G1 X103.689 Y121.305 F7800.000
G1 X104.225 Y120.237 E22.90855 F1800.000
G1 X103.440 Y120.208 E22.93185
G1 X102.840 Y121.406 E22.97165
G1 X101.990 Y121.507 E22.99705
G1 X102.591 Y120.309 E23.03685
G1 X101.741 Y120.410 E23.06225
G1 X101.146 Y121.598 E23.10171
G1 X100.347 Y121.598 E23.12542
G1 X100.914 Y120.467 E23.16300
G1 X100.115 Y120.467 E23.18672
G1 X99.548 Y121.598 E23.22430
G1 X98.749 Y121.598 E23.24802
G1 X99.316 Y120.467 E23.28560
G1 X98.535 Y120.432 E23.30882
G1 X97.991 Y121.517 E23.34485
G1 X97.238 Y121.427 E23.36739
G1 X97.781 Y120.342 E23.40342
G1 X97.027 Y120.252 E23.42596
G1 X96.484 Y121.337 E23.46199
G1 X95.753 Y121.202 E23.48407
G1 X96.281 Y120.148 E23.51908
G1 X95.568 Y119.976 E23.54084
G1 X95.040 Y121.030 E23.57585
G1 X93.618 Y120.680 F7800.000
G1 X94.137 Y119.643 E23.61029 F1800.000
G1 X93.464 Y119.393 E23.63162
G1 X92.944 Y120.430 E23.66606
G1 X92.271 Y120.179 E23.68739
G1 X92.791 Y119.142 E23.72182
G1 X92.117 Y118.892 E23.74315
G1 X91.597 Y119.929 E23.77759
G1 X90.944 Y119.639 E23.79882
G1 X91.461 Y118.607 E23.83309
G1 X90.826 Y118.281 E23.85430
G1 X90.308 Y119.313 E23.88857
G1 X89.673 Y118.987 E23.90977
G1 X90.190 Y117.955 E23.94405
G1 X89.556 Y117.626 E23.96525
G1 X89.038 Y118.661 E23.99963
G1 X88.439 Y118.262 E24.02100
G1 X88.959 Y117.224 E24.05550
G1 X88.362 Y116.821 E24.07688
G1 X87.841 Y117.860 E24.11138
G1 X87.244 Y117.458 E24.13276
G1 X87.765 Y116.419 E24.16726
G1 X87.193 Y115.965 E24.18893
G1 X86.663 Y117.023 E24.22407
G1 X86.105 Y116.543 E24.24594
G1 X86.636 Y115.485 E24.28108
G1 X86.078 Y115.004 E24.30294
G1 X85.547 Y116.062 E24.33809
G1 X84.989 Y115.581 F7800.000
G1 X85.345 Y114.872 E24.36164 F1800.000
G1 X84.471 Y115.021 E24.38796
G1 X85.018 Y113.930 E24.42420
G1 X84.502 Y113.366 E24.44690
