; generated by Slic3r 1.2.9 on 2018-11-05 at 16:55:01

; external perimeters extrusion width = 0.40mm
; perimeters extrusion width = 0.67mm
; infill extrusion width = 0.67mm
; solid infill extrusion width = 0.67mm
; top infill extrusion width = 0.67mm
; support material extrusion width = 0.40mm

M107
M190 S65 ; set bed temperature
M104 S205 ; set temperature
G28 ; home all axes
G1 Z5 F5000 ; lift nozzle

M109 S205 ; wait for temperature to be reached
G21 ; set units to millimeters
G90 ; use absolute coordinates
M82 ; use absolute distances for extrusion
G92 E0
G1 Z0.200 F7800.000
G1 E-1.00000 F2100.00000
G92 E0
G1 X81.631 Y81.108 F7800.000
G1 E1.00000 F2100.00000
G1 X82.131 Y80.635 E1.02044 F1800.000
G1 X83.781 Y79.233 E1.08474
G1 X84.329 Y78.816 E1.10517
G1 X86.032 Y77.662 E1.16626
G1 X86.711 Y77.246 E1.18990
G1 X88.625 Y76.232 E1.25420
G1 X89.249 Y75.943 E1.27464
G1 X91.261 Y75.141 E1.33894
G1 X91.913 Y74.922 E1.35938
G1 X94.000 Y74.342 E1.42367
G1 X94.672 Y74.194 E1.44411
G1 X96.809 Y73.844 E1.50841
G1 X97.493 Y73.769 E1.52885
G1 X99.656 Y73.652 E1.59315
G1 X100.344 Y73.652 E1.61358
G1 X102.507 Y73.769 E1.67788 F1800.000
G1 X103.191 Y73.844 E1.69832
G1 X105.328 Y74.194 E1.76262
G1 X106.000 Y74.342 E1.78305
G1 X108.087 Y74.922 E1.84735
G1 X108.739 Y75.141 E1.86779
G1 X110.650 Y75.903 E1.92887
G1 X111.375 Y76.232 E1.95252
G1 X113.289 Y77.246 E2.01682
G1 X113.879 Y77.601 E2.03726
G1 X115.671 Y78.816 E2.10156
G1 X116.219 Y79.233 E2.12199
G1 X117.869 Y80.635 E2.18629
G1 X118.369 Y81.108 E2.20673
G1 X119.858 Y82.681 E2.27103
G1 X120.304 Y83.205 E2.29146
G1 X121.615 Y84.929 E2.35576
G1 X122.001 Y85.499 E2.37620
G1 X123.117 Y87.354 E2.44050
G1 X123.440 Y87.963 E2.46093
G1 X124.349 Y89.928 E2.52523
G1 X124.604 Y90.567 E2.54567
G1 X125.295 Y92.620 E2.60997
G1 X125.479 Y93.283 E2.63041
G1 X125.945 Y95.398 E2.69470
G1 X126.056 Y96.077 E2.71514
G1 X126.290 Y98.230 E2.77944
G1 X126.328 Y98.917 E2.79988
G1 X126.328 Y101.083 E2.86417
G1 X126.290 Y101.770 E2.88461
G1 X126.056 Y103.923 E2.94891
G1 X125.945 Y104.602 E2.96935
G1 X125.511 Y106.572 E3.02924
G1 X125.295 Y107.380 E3.05408
G1 X124.604 Y109.433 E3.11838
G1 X124.349 Y110.072 E3.13881
G1 X123.440 Y112.037 E3.20311
G1 X123.117 Y112.646 E3.22355
G1 X122.001 Y114.501 E3.28785
G1 X121.615 Y115.071 E3.30828
G1 X120.370 Y116.709 E3.36937
G1 X119.858 Y117.319 E3.39302
G1 X118.369 Y118.892 E3.45731
G1 X117.869 Y119.365 E3.47775
G1 X116.219 Y120.767 E3.54205
G1 X115.671 Y121.184 E3.56249
G1 X113.879 Y122.399 E3.62679
G1 X113.289 Y122.754 E3.64722
G1 X111.471 Y123.717 E3.70831
G1 X110.751 Y124.057 E3.73196
G1 X108.739 Y124.859 E3.79625
G1 X108.087 Y125.078 E3.81669
G1 X106.000 Y125.658 E3.88099
G1 X105.328 Y125.806 E3.90143
G1 X103.298 Y126.139 E3.96251
G1 X102.507 Y126.231 E3.98616
G1 X100.344 Y126.348 E4.05046
G1 X99.656 Y126.348 E4.07089
G1 X97.493 Y126.231 E4.13519
G1 X96.809 Y126.156 E4.15563
G1 X94.672 Y125.806 E4.21993
G1 X94.000 Y125.658 E4.24036
G1 X92.018 Y125.107 E4.30145
G1 X91.261 Y124.859 E4.32510
G1 X89.249 Y124.057 E4.38939
G1 X88.625 Y123.768 E4.40983
G1 X86.711 Y122.754 E4.47413
G1 X86.121 Y122.399 E4.49457
G1 X84.329 Y121.184 E4.55887
G1 X83.781 Y120.767 E4.57930
G1 X82.130 Y119.365 E4.64360
G1 X81.631 Y118.892 E4.66404
G1 X80.142 Y117.319 E4.72834
G1 X79.696 Y116.795 E4.74877
G1 X78.385 Y115.071 E4.81307
G1 X77.999 Y114.501 E4.83351
G1 X76.883 Y112.646 E4.89781
G1 X76.560 Y112.037 E4.91824
G1 X75.651 Y110.072 E4.98254
G1 X75.396 Y109.433 E5.00298
G1 X74.705 Y107.380 E5.06728
G1 X74.521 Y106.717 E5.08772
G1 X74.055 Y104.602 E5.15202
G1 X73.944 Y103.923 E5.17245
G1 X73.721 Y101.878 E5.23354
G1 X73.672 Y101.083 E5.25718
G1 X73.672 Y98.917 E5.32148
G1 X73.710 Y98.230 E5.34192
G1 X73.944 Y96.077 E5.40622
G1 X74.055 Y95.398 E5.42665
G1 X74.521 Y93.283 E5.49095
G1 X74.705 Y92.620 E5.51139
G1 X75.362 Y90.670 E5.57247
G1 X75.651 Y89.928 E5.59612
G1 X76.560 Y87.963 E5.66042
G1 X76.883 Y87.354 E5.68086
G1 X77.999 Y85.499 E5.74516
G1 X78.385 Y84.929 E5.76559
G1 X79.696 Y83.205 E5.82989
G1 X80.142 Y82.681 E5.85033
G1 X81.590 Y81.152 E5.91285
G1 E4.91285 F2100.00000
G92 E0
G1 X113.260 Y112.886 F7800.000
G1 E1.00000 F2100.00000
G1 X111.704 Y114.314 E1.06269 F1800.000
G1 X109.996 Y115.555 E1.12537
G1 X108.155 Y116.594 E1.18816
G1 X106.214 Y117.415 E1.25073
G1 X104.188 Y118.009 E1.31341
G1 X102.108 Y118.369 E1.37610
G1 X100.000 Y118.490 E1.43878
G1 X97.892 Y118.369 E1.50146
G1 X95.812 Y118.009 E1.56414
G1 X93.786 Y117.415 E1.62683
G1 X91.845 Y116.594 E1.68940
G1 X90.004 Y115.555 E1.75219
G1 X88.296 Y114.314 E1.81487
G1 X86.740 Y112.886 E1.87756
G1 X85.358 Y111.291 E1.94024
G1 X84.166 Y109.548 E2.00292
G1 X83.181 Y107.681 E2.06560
G1 X82.416 Y105.717 E2.12819
G1 X81.878 Y103.672 E2.19097
G1 X81.578 Y101.582 E2.25365
G1 X81.518 Y99.472 E2.31633
G1 X81.698 Y97.369 E2.37902
G1 X82.117 Y95.300 E2.44170
G1 X82.770 Y93.292 E2.50438
G1 X83.647 Y91.371 E2.56706
G1 X84.737 Y89.563 E2.62975
G1 X86.026 Y87.892 E2.69243
G1 X87.498 Y86.378 E2.75511
G1 X89.132 Y85.041 E2.81779
G1 X90.908 Y83.900 E2.88048
G1 X92.870 Y82.935 E2.94540
G1 X94.792 Y82.259 E3.00589
G1 X96.847 Y81.781 E3.06854
G1 X98.937 Y81.541 E3.13098
G1 X99.996 Y81.511 E3.16246 F1800.000
G1 X101.063 Y81.541 E3.19416
G1 X103.153 Y81.781 E3.25661
G1 X105.209 Y82.259 E3.31929
G1 X107.198 Y82.968 E3.38197
G1 X109.092 Y83.900 E3.44465
G1 X110.861 Y85.037 E3.50710
G1 X112.502 Y86.378 E3.57001
G1 X113.974 Y87.892 E3.63270
G1 X115.263 Y89.563 E3.69538
G1 X116.353 Y91.371 E3.75807
G1 X117.230 Y93.292 E3.82075
G1 X117.883 Y95.300 E3.88343
G1 X118.300 Y97.361 E3.94588
G1 X118.482 Y99.472 E4.00879
G1 X118.422 Y101.582 E4.07148
G1 X118.122 Y103.672 E4.13416
G1 X117.585 Y105.714 E4.19684
G1 X116.819 Y107.681 E4.25952
G1 X115.834 Y109.548 E4.32221
G1 X114.647 Y111.284 E4.38465
G1 X113.299 Y112.841 E4.44578
G1 X113.003 Y112.637 F7800.000
G1 X111.478 Y114.037 E4.50726 F1800.000
G1 X109.803 Y115.254 E4.56873
G1 X107.997 Y116.273 E4.63031
G1 X106.093 Y117.078 E4.69167
G1 X104.107 Y117.661 E4.75314
G1 X102.067 Y118.014 E4.81460
G1 X100.000 Y118.132 E4.87608
G1 X97.933 Y118.014 E4.93755
G1 X95.893 Y117.661 E4.99901
G1 X93.907 Y117.078 E5.06048
G1 X92.003 Y116.273 E5.12184
G1 X90.197 Y115.254 E5.18342
G1 X88.522 Y114.037 E5.24489
G1 X86.997 Y112.637 E5.30636
G1 X85.641 Y111.072 E5.36783
G1 X84.472 Y109.363 E5.42930
G1 X83.506 Y107.532 E5.49077
G1 X82.756 Y105.606 E5.55215
G1 X82.229 Y103.601 E5.61371
G1 X81.934 Y101.552 E5.67518
G1 X81.875 Y99.482 E5.73665
G1 X82.052 Y97.420 E5.79812
G1 X82.463 Y95.390 E5.85959
G1 X83.103 Y93.421 E5.92106
G1 X83.963 Y91.538 E5.98253
G1 X85.032 Y89.765 E6.04400
G1 X86.297 Y88.126 E6.10547
G1 X87.739 Y86.641 E6.16694
G1 X89.342 Y85.331 E6.22841
G1 X91.084 Y84.211 E6.28988
G1 X93.009 Y83.265 E6.35358
G1 X94.892 Y82.602 E6.41285
G1 X96.908 Y82.133 E6.47431
G1 X98.962 Y81.898 E6.53569
G1 X99.996 Y81.868 E6.56641 F1800.000
G1 X101.038 Y81.898 E6.59736
G1 X103.092 Y82.133 E6.65874
G1 X105.108 Y82.602 E6.72021
G1 X107.058 Y83.298 E6.78168
G1 X108.916 Y84.211 E6.84315
G1 X110.651 Y85.326 E6.90439
G1 X112.261 Y86.641 E6.96609
G1 X113.703 Y88.126 E7.02756
G1 X114.968 Y89.765 E7.08903
G1 X116.037 Y91.538 E7.15050
G1 X116.897 Y93.421 E7.21197
G1 X117.537 Y95.390 E7.27344
G1 X117.946 Y97.412 E7.33468
G1 X118.125 Y99.482 E7.39638
G1 X118.066 Y101.552 E7.45785
G1 X117.771 Y103.601 E7.51932
G1 X117.245 Y105.603 E7.58079
G1 X116.494 Y107.532 E7.64226
G1 X115.528 Y109.363 E7.70373
G1 X114.363 Y111.066 E7.76497
G1 X113.043 Y112.592 E7.82488
G1 X113.105 Y113.024 F7800.000
G1 E6.82488 F2100.00000
G92 E0
G1 X98.943 Y81.181 F7800.000
G1 E1.00000 F2100.00000
G1 X96.786 Y81.428 E1.06447 F1800.000
G1 X94.692 Y81.915 E1.12831
G1 X92.799 Y82.582 E1.18789
G1 X92.725 Y82.385 E1.19412
G1 X93.906 Y81.915 E1.23186
G1 X95.897 Y81.362 E1.29322
G1 X97.937 Y81.027 E1.35457
G1 X98.926 Y80.974 E1.38398
G1 X98.938 Y81.121 E1.38837
G1 X98.979 Y81.183 F7800.000
G1 X98.970 Y80.971 E1.39465 F1800.000
G1 X100.000 Y80.915 E1.42527
G1 X101.031 Y80.971 E1.45592
G1 X101.022 Y81.183 E1.46220
G1 X99.996 Y81.154 E1.49267
G1 X99.039 Y81.181 E1.52109
G1 X101.057 Y81.181 F7800.000
G1 X101.074 Y80.974 E1.52726 F1800.000
G1 X101.958 Y81.022 E1.55353
G1 X103.133 Y81.208 E1.58887
G1 X103.105 Y81.416 E1.59510
G1 X101.116 Y81.188 E1.65452
G1 X103.238 Y81.434 F7800.000
G1 X103.277 Y81.231 E1.66066 F1800.000
G1 X104.105 Y81.362 E1.68554
G1 X106.094 Y81.915 E1.74683
G1 X108.013 Y82.679 E1.80818
G1 X109.839 Y83.647 E1.86954
G1 X111.549 Y84.807 E1.93089
G1 X113.124 Y86.145 E1.99225
G1 X114.545 Y87.645 E2.05360
G1 X115.796 Y89.290 E2.11496
G1 X116.861 Y91.061 E2.17631
G1 X117.729 Y92.936 E2.23767
G1 X118.389 Y94.894 E2.29902
G1 X118.833 Y96.912 E2.36038
G1 X119.057 Y98.967 E2.42173
G1 X119.057 Y101.033 E2.48309
G1 X118.833 Y103.088 E2.54444
G1 X118.389 Y105.106 E2.60580
G1 X117.729 Y107.064 E2.66715
G1 X116.861 Y108.939 E2.72851
G1 X115.796 Y110.710 E2.78986
G1 X114.545 Y112.355 E2.85122
G1 X113.124 Y113.855 E2.91257
G1 X111.549 Y115.193 E2.97393
G1 X109.839 Y116.353 E3.03528
G1 X108.107 Y117.271 E3.09349
G1 X106.091 Y118.086 E3.15804
G1 X104.103 Y118.638 E3.21933
G1 X102.063 Y118.973 E3.28068
G1 X100.000 Y119.085 E3.34204
G1 X97.937 Y118.973 E3.40339
G1 X95.897 Y118.638 E3.46475
G1 X94.008 Y118.114 E3.52296
G1 X91.985 Y117.320 E3.58751
G1 X90.161 Y116.353 E3.64879
G1 X88.451 Y115.193 E3.71015
G1 X86.876 Y113.855 E3.77150
G1 X85.455 Y112.355 E3.83286
G1 X84.204 Y110.710 E3.89421
G1 X83.139 Y108.939 E3.95557
G1 X82.271 Y107.064 E4.01692
G1 X81.611 Y105.106 E4.07828
G1 X81.167 Y103.088 E4.13963
G1 X80.943 Y101.033 E4.20099
G1 X80.943 Y98.967 E4.26234
G1 X81.167 Y96.912 E4.32370
G1 X81.611 Y94.894 E4.38505
G1 X82.271 Y92.936 E4.44641
G1 X83.139 Y91.061 E4.50776
G1 X84.204 Y89.290 E4.56912
G1 X85.455 Y87.645 E4.63047
G1 X86.876 Y86.145 E4.69183
G1 X88.451 Y84.807 E4.75318
G1 X90.161 Y83.647 E4.81454
G1 X91.987 Y82.679 E4.87589
G1 X92.660 Y82.411 E4.89743
G1 X92.744 Y82.599 E4.90354
G1 X90.732 Y83.589 E4.97011
G1 X88.922 Y84.752 E5.03401
G1 X87.256 Y86.114 E5.09790
G1 X85.756 Y87.657 E5.16180
G1 X84.442 Y89.362 E5.22569
G1 X83.331 Y91.204 E5.28959
G1 X82.437 Y93.162 E5.35348
G1 X81.772 Y95.209 E5.41738
G1 X81.344 Y97.318 E5.48127
G1 X81.160 Y99.462 E5.54517
G1 X81.222 Y101.613 E5.60906
G1 X81.528 Y103.743 E5.67296
G1 X82.076 Y105.827 E5.73695
G1 X82.856 Y107.830 E5.80075
G1 X83.860 Y109.733 E5.86464
G1 X85.075 Y111.509 E5.92854
G1 X86.484 Y113.136 E5.99243
G1 X88.069 Y114.591 E6.05633
G1 X89.810 Y115.856 E6.12023
G1 X91.688 Y116.915 E6.18423
G1 X93.666 Y117.752 E6.24801
G1 X95.731 Y118.358 E6.31191
G1 X97.852 Y118.725 E6.37580
G1 X100.000 Y118.848 E6.43970
G1 X102.148 Y118.725 E6.50359
G1 X104.269 Y118.358 E6.56749
G1 X106.334 Y117.752 E6.63138
G1 X108.312 Y116.915 E6.69517
G1 X110.190 Y115.856 E6.75917
G1 X111.931 Y114.591 E6.82307
G1 X113.516 Y113.135 E6.88697
G1 X114.930 Y111.503 E6.95109
G1 X116.140 Y109.733 E7.01475
G1 X117.144 Y107.830 E7.07865
G1 X117.925 Y105.824 E7.14254
G1 X118.472 Y103.743 E7.20644
G1 X118.778 Y101.613 E7.27033
G1 X118.840 Y99.462 E7.33423
G1 X118.654 Y97.310 E7.39836
G1 X118.228 Y95.209 E7.46201
G1 X117.563 Y93.162 E7.52591
G1 X116.669 Y91.204 E7.58980
G1 X115.558 Y89.362 E7.65370
G1 X114.244 Y87.657 E7.71759
G1 X112.744 Y86.114 E7.78149
G1 X111.072 Y84.748 E7.84562
G1 X109.268 Y83.589 E7.90928
G1 X107.337 Y82.639 E7.97317
G1 X105.310 Y81.916 E8.03707
G1 X103.296 Y81.448 E8.09846
G1 X103.326 Y80.877 F7800.000
G1 X104.181 Y81.013 E8.12416 F1800.000
G1 X106.208 Y81.576 E8.18662
G1 X108.164 Y82.355 E8.24912
G1 X110.023 Y83.341 E8.31163
G1 X111.766 Y84.522 E8.37413
G1 X113.370 Y85.885 E8.43664
G1 X114.818 Y87.413 E8.49914
G1 X116.092 Y89.089 E8.56165
G1 X117.177 Y90.893 E8.62415
G1 X118.061 Y92.804 E8.68666
G1 X118.733 Y94.799 E8.74916
G1 X119.186 Y96.855 E8.81167
G1 X119.414 Y98.947 E8.87417
G1 X119.414 Y101.053 E8.93668
G1 X119.186 Y103.145 E8.99918
G1 X118.733 Y105.201 E9.06168
G1 X118.061 Y107.196 E9.12419
G1 X117.177 Y109.107 E9.18669
G1 X116.092 Y110.911 E9.24920
G1 X114.818 Y112.587 E9.31170
G1 X113.370 Y114.115 E9.37421
G1 X111.766 Y115.478 E9.43671
G1 X110.023 Y116.659 E9.49922
G1 X108.258 Y117.595 E9.55855
G1 X106.207 Y118.425 E9.62425
G1 X104.179 Y118.988 E9.68671
G1 X102.102 Y119.328 E9.74922
G1 X100.000 Y119.442 E9.81172
G1 X97.898 Y119.328 E9.87423
G1 X95.821 Y118.988 E9.93673
G1 X93.895 Y118.453 E9.99606
G1 X91.835 Y117.645 E10.06176
G1 X89.977 Y116.659 E10.12423
G1 X88.234 Y115.478 E10.18673
G1 X86.630 Y114.115 E10.24924
G1 X85.182 Y112.587 E10.31174
G1 X83.908 Y110.911 E10.37424
G1 X82.823 Y109.107 E10.43675
G1 X81.939 Y107.196 E10.49925
G1 X81.267 Y105.201 E10.56176
G1 X80.814 Y103.145 E10.62426
G1 X80.586 Y101.053 E10.68677
G1 X80.586 Y98.947 E10.74927
G1 X80.814 Y96.855 E10.81178
G1 X81.267 Y94.799 E10.87428
G1 X81.939 Y92.804 E10.93679
G1 X82.823 Y90.893 E10.99929
G1 X83.908 Y89.089 E11.06180
G1 X85.182 Y87.413 E11.12430
G1 X86.630 Y85.885 E11.18680
G1 X88.234 Y84.522 E11.24931
G1 X89.977 Y83.341 E11.31181
G1 X91.836 Y82.355 E11.37432
G1 X93.792 Y81.576 E11.43682
G1 X95.821 Y81.012 E11.49933
G1 X97.898 Y80.672 E11.56183
G1 X100.000 Y80.558 E11.62434
G1 X101.995 Y80.666 E11.68367
G1 X103.267 Y80.868 E11.72189 F1800.000
G1 X103.382 Y80.525 F7800.000
G1 X104.257 Y80.663 E11.74819 F1800.000
G1 X106.322 Y81.237 E11.81183
G1 X108.314 Y82.030 E11.87548
G1 X110.208 Y83.034 E11.93914
G1 X111.982 Y84.238 E12.00279
G1 X113.616 Y85.625 E12.06645
G1 X115.091 Y87.182 E12.13010
G1 X116.388 Y88.889 E12.19376
G1 X117.493 Y90.726 E12.25741
G1 X118.393 Y92.671 E12.32106
G1 X119.078 Y94.703 E12.38472
G1 X119.539 Y96.797 E12.44837
G1 X119.771 Y98.928 E12.51203
G1 X119.771 Y101.072 E12.57568
G1 X119.539 Y103.203 E12.63934
G1 X119.078 Y105.297 E12.70299
G1 X118.393 Y107.329 E12.76664
G1 X117.493 Y109.274 E12.83030
G1 X116.388 Y111.111 E12.89395
G1 X115.091 Y112.818 E12.95761
G1 X113.616 Y114.374 E13.02126
G1 X111.982 Y115.762 E13.08491
G1 X110.208 Y116.966 E13.14857
G1 X108.409 Y117.919 E13.20902
G1 X106.322 Y118.763 E13.27587
G1 X104.256 Y119.337 E13.33951
G1 X102.141 Y119.684 E13.40317
G1 X100.000 Y119.800 E13.46682
G1 X97.859 Y119.684 E13.53048
G1 X95.744 Y119.337 E13.59413
G1 X93.782 Y118.792 E13.65459
G1 X91.686 Y117.969 E13.72144
G1 X89.792 Y116.966 E13.78508
G1 X88.018 Y115.762 E13.84873
G1 X86.384 Y114.374 E13.91238
G1 X84.909 Y112.818 E13.97604
G1 X83.612 Y111.111 E14.03969
G1 X82.507 Y109.274 E14.10335
G1 X81.607 Y107.329 E14.16700
G1 X80.922 Y105.297 E14.23066
G1 X80.461 Y103.203 E14.29431
G1 X80.229 Y101.072 E14.35796
G1 X80.229 Y98.928 E14.42162
G1 X80.461 Y96.797 E14.48527
G1 X80.922 Y94.703 E14.54893
G1 X81.607 Y92.671 E14.61258
G1 X82.507 Y90.726 E14.67624
G1 X83.612 Y88.889 E14.73989
G1 X84.909 Y87.182 E14.80354
G1 X86.384 Y85.625 E14.86720
G1 X88.018 Y84.238 E14.93085
G1 X89.792 Y83.034 E14.99451
G1 X91.686 Y82.030 E15.05816
G1 X93.678 Y81.237 E15.12181
G1 X95.744 Y80.663 E15.18547
G1 X97.859 Y80.316 E15.24912
G1 X100.000 Y80.200 E15.31278
G1 X102.033 Y80.311 E15.37323
G1 X103.323 Y80.515 E15.41200 F1800.000
G1 X103.525 Y80.898 F7800.000
G1 Z0.200 F7800.000
M104 S200 ; set temperature
M140 S60 ; wait for bed temperature to be reached
G1 Z0.400 F7800.000
G1 X103.153 Y81.781 F7800.000
G1 X105.209 Y82.259 E15.52229 F3600.000
G1 X107.198 Y82.969 E15.63259
G1 X109.092 Y83.900 E15.74288
G1 X110.848 Y85.029 E15.85194
G1 X112.502 Y86.378 E15.96344
G1 X113.974 Y87.892 E16.07376
G1 X115.263 Y89.564 E16.18406
G1 X116.353 Y91.371 E16.29435
G1 X117.230 Y93.292 E16.40465
G1 X117.882 Y95.300 E16.51494
G1 X118.302 Y97.369 E16.62524
G1 X118.482 Y99.472 E16.73553
G1 X118.422 Y101.582 E16.84583
G1 X118.121 Y103.672 E16.95612
G1 X117.585 Y105.714 E17.06642
G1 X116.824 Y107.668 E17.17599
G1 X115.834 Y109.548 E17.28699
G1 X114.642 Y111.291 E17.39730
G1 X113.260 Y112.886 E17.50759
G1 X111.704 Y114.314 E17.61789
G1 X109.996 Y115.555 E17.72819
G1 X108.148 Y116.597 E17.83906
G1 X106.213 Y117.414 E17.94877
G1 X104.188 Y118.009 E18.05906
G1 X102.108 Y118.369 E18.16936
G1 X100.000 Y118.490 E18.27965
G1 X97.892 Y118.369 E18.38995
