; generated by Slic3r 1.2.9 on 2018-11-05 at 16:55:46

; external perimeters extrusion width = 0.40mm
; perimeters extrusion width = 0.67mm
; infill extrusion width = 0.67mm
; solid infill extrusion width = 0.67mm
; top infill extrusion width = 0.67mm
; support material extrusion width = 0.40mm

M107
M190 S65 ; set bed temperature
M104 S205 ; set temperature
G28 ; home all axes
G1 Z5 F5000 ; lift nozzle

M109 S205 ; wait for temperature to be reached
G21 ; set units to millimeters
G90 ; use absolute coordinates
M82 ; use absolute distances for extrusion
G92 E0
G1 Z0.200 F7800.000
G1 E-1.00000 F2100.00000
G92 E0
G1 X83.681 Y93.854 F7800.000
G1 E1.00000 F2100.00000
G1 X85.423 Y92.437 E1.06669 F1800.000
G1 X88.500 Y91.643 E1.16103
G1 X111.500 Y91.643 E1.84393
G1 X113.711 Y92.040 E1.91063
G1 X115.646 Y93.181 E1.97732 F1800.000
G1 X117.063 Y94.923 E2.04402
G1 X117.857 Y98.000 E2.13835
G1 X117.857 Y102.000 E2.25712
G1 X117.460 Y104.211 E2.32381
G1 X116.319 Y106.146 E2.39051
G1 X114.577 Y107.563 E2.45720
G1 X111.500 Y108.357 E2.55154
G1 X88.500 Y108.357 E3.23444
G1 X86.289 Y107.960 E3.30113
G1 X84.354 Y106.819 E3.36783
G1 X82.937 Y105.076 E3.43452
G1 X82.143 Y102.000 E3.52886
G1 X82.143 Y98.000 E3.64763
G1 X82.540 Y95.789 E3.71432
G1 X83.650 Y93.906 E3.77923
G1 E2.77923 F2100.00000
G92 E0
G1 X110.586 Y101.086 F7800.000
G1 E1.00000 F2100.00000
G1 X89.414 Y101.086 E1.62861 F1800.000
G1 X89.414 Y98.914 E1.69309
G1 X110.586 Y98.914 E2.32171
G1 X110.586 Y101.026 E2.38441
G1 X110.943 Y101.443 F7800.000
G1 X89.057 Y101.443 E3.03423 F1800.000
G1 X89.057 Y98.557 E3.11991
G1 X110.943 Y98.557 E3.76973
G1 X110.943 Y101.383 E3.85363
G1 X111.300 Y101.800 F7800.000
G1 X88.700 Y101.800 E4.52466 F1800.000
G1 X88.700 Y98.200 E4.63155
G1 X111.300 Y98.200 E5.30257
G1 X111.300 Y101.740 E5.40768
G1 X110.954 Y101.600 F7800.000
G1 X110.378 Y99.313 F7800.000
G1 X110.187 Y99.122 E5.41587 F1800.000
G1 X109.672 Y99.122 E5.43144
G1 X110.378 Y99.828 E5.46166
G1 X110.378 Y100.343 E5.47723
G1 X109.157 Y99.122 E5.52947
G1 X108.643 Y99.122 E5.54504
G1 X110.368 Y100.848 E5.61889
G1 X109.884 Y100.878 E5.63358
G1 X108.128 Y99.122 E5.70873
G1 X107.613 Y99.122 E5.72430
G1 X109.370 Y100.878 E5.79945
G1 X108.855 Y100.878 E5.81502
G1 X107.099 Y99.122 E5.89018
G1 X106.584 Y99.122 E5.90575
G1 X108.340 Y100.878 E5.98090
G1 X107.826 Y100.878 E5.99647
G1 X106.069 Y99.122 E6.07162
G1 X105.555 Y99.122 E6.08719
G1 X107.311 Y100.878 E6.16235
G1 X106.796 Y100.878 E6.17792
G1 X105.040 Y99.122 E6.25307
G1 X104.526 Y99.122 E6.26864
G1 X106.282 Y100.878 E6.34379
G1 X105.767 Y100.878 E6.35937
G1 X104.011 Y99.122 E6.43452
G1 X103.496 Y99.122 E6.45009
G1 X105.252 Y100.878 E6.52524
G1 X104.738 Y100.878 E6.54081
G1 X102.982 Y99.122 E6.61596
G1 X102.467 Y99.122 E6.63154
G1 X104.223 Y100.878 E6.70669
G1 X103.709 Y100.878 E6.72226
G1 X101.952 Y99.122 E6.79741
G1 X101.438 Y99.122 E6.81298
G1 X103.194 Y100.878 E6.88813
G1 X102.679 Y100.878 E6.90371
G1 X100.923 Y99.122 E6.97886
G1 X100.408 Y99.122 E6.99443
G1 X102.165 Y100.878 E7.06958
G1 X101.650 Y100.878 E7.08515
G1 X99.894 Y99.122 E7.16031
G1 X99.379 Y99.122 E7.17588
G1 X101.135 Y100.878 E7.25103
G1 X100.621 Y100.878 E7.26660
G1 X98.865 Y99.122 E7.34175
G1 X98.350 Y99.122 E7.35732
G1 X100.106 Y100.878 E7.43248
G1 X99.591 Y100.878 E7.44805
G1 X97.835 Y99.122 E7.52320
G1 X97.321 Y99.122 E7.53877
G1 X99.077 Y100.878 E7.61392
G1 X98.562 Y100.878 E7.62950
G1 X96.806 Y99.122 E7.70465
G1 X96.291 Y99.122 E7.72022
G1 X98.048 Y100.878 E7.79537
G1 X97.533 Y100.878 E7.81094
G1 X95.777 Y99.122 E7.88609
G1 X95.262 Y99.122 E7.90167
G1 X97.018 Y100.878 E7.97682
G1 X96.504 Y100.878 E7.99239
G1 X94.747 Y99.122 E8.06754
G1 X94.233 Y99.122 E8.08311
G1 X95.989 Y100.878 E8.15826
G1 X95.474 Y100.878 E8.17384
G1 X93.718 Y99.122 E8.24899
G1 X93.204 Y99.122 E8.26456
G1 X94.960 Y100.878 E8.33971
G1 X94.445 Y100.878 E8.35528
G1 X92.689 Y99.122 E8.43044
G1 X92.174 Y99.122 E8.44601
G1 X93.930 Y100.878 E8.52116
G1 X93.416 Y100.878 E8.53673
G1 X91.660 Y99.122 E8.61188
G1 X91.145 Y99.122 E8.62745
G1 X92.901 Y100.878 E8.70261
G1 X92.387 Y100.878 E8.71818
G1 X90.630 Y99.122 E8.79333
G1 X90.116 Y99.122 E8.80890
G1 X91.872 Y100.878 E8.88405
G1 X91.357 Y100.878 E8.89963
G1 X89.631 Y99.152 E8.97348
G1 X89.622 Y99.657 E8.98876
G1 X90.843 Y100.878 E9.04100
G1 X90.328 Y100.878 E9.05657
G1 X89.622 Y100.172 E9.08679
G1 X89.622 Y100.687 E9.10236
G1 X89.813 Y100.878 E9.11055
G1 Z0.200 F7800.000
M104 S200 ; set temperature
M140 S60 ; wait for bed temperature to be reached
G1 Z0.400 F7800.000
G1 X110.179 Y100.679 F7800.000
G1 X89.821 Y100.679 E10.17415 F3067.670
G1 X89.821 Y99.321 E10.24510
G1 X110.179 Y99.321 E11.30870
G1 X110.179 Y100.619 E11.37651
G1 X110.807 Y101.307 F7800.000
G1 X89.193 Y101.307 E12.50576 F3067.670
G1 X89.193 Y98.693 E12.64236
G1 X110.807 Y98.693 E13.77161
G1 X110.807 Y101.247 E13.90508
G1 X111.300 Y101.800 F7800.000
G1 X88.700 Y101.800 E14.57610 F1533.835
G1 X88.700 Y98.200 E14.68299
G1 X111.300 Y98.200 E15.35401
G1 X111.300 Y101.740 E15.45912
G1 X110.954 Y101.600 F7800.000
G1 X109.865 Y100.000 F7800.000
G1 X90.135 Y100.000 E17.59108 F1022.557
G1 Z0.600 F7800.000
G1 X110.179 Y100.679 F7800.000
G1 X89.821 Y100.679 E18.65468 F3067.670
G1 X89.821 Y99.321 E18.72562
G1 X110.179 Y99.321 E19.78922
G1 X110.179 Y100.619 E19.85704
G1 X110.807 Y101.307 F7800.000
G1 X89.193 Y101.307 E20.98629 F3067.670
G1 X89.193 Y98.693 E21.12289
G1 X110.807 Y98.693 E22.25214
G1 X110.807 Y101.247 E22.38561
G1 X111.300 Y101.800 F7800.000
G1 X88.700 Y101.800 E23.05663 F1533.835
G1 X88.700 Y98.200 E23.16352
G1 X111.300 Y98.200 E23.83454
G1 X111.300 Y101.740 E23.93965
G1 X110.954 Y101.600 F7800.000
G1 X109.865 Y100.000 F7800.000
G1 X90.135 Y100.000 E26.07160 F1022.557
M106 S255
G1 Z0.800 F7800.000
G1 X110.179 Y100.679 F7800.000
G1 X89.821 Y100.679 E27.13520 F3067.670
G1 X89.821 Y99.321 E27.20615
G1 X110.179 Y99.321 E28.26975
G1 X110.179 Y100.619 E28.33756
G1 X110.807 Y101.307 F7800.000
G1 X89.193 Y101.307 E29.46682 F3067.670
G1 X89.193 Y98.693 E29.60342
G1 X110.807 Y98.693 E30.73267
G1 X110.807 Y101.247 E30.86613
G1 X111.300 Y101.800 F7800.000
G1 X88.700 Y101.800 E31.53716 F1533.835
G1 X88.700 Y98.200 E31.64404
G1 X111.300 Y98.200 E32.31507
G1 X111.300 Y101.740 E32.42017
G1 X110.954 Y101.600 F7800.000
G1 X109.865 Y100.000 F7800.000
G1 X90.135 Y100.000 E34.55213 F1022.557
G1 Z1.000 F7800.000
G1 X110.179 Y100.679 F7800.000
G1 X89.821 Y100.679 E35.61573 F3067.670
G1 X89.821 Y99.321 E35.68668
G1 X110.179 Y99.321 E36.75028
G1 X110.179 Y100.619 E36.81809
G1 X110.807 Y101.307 F7800.000
G1 X89.193 Y101.307 E37.94734 F3067.670
G1 X89.193 Y98.693 E38.08394
G1 X110.807 Y98.693 E39.21319
G1 X110.807 Y101.247 E39.34666
G1 X111.300 Y101.800 F7800.000
G1 X88.700 Y101.800 E40.01768 F1533.835
G1 X88.700 Y98.200 E40.12457
G1 X111.300 Y98.200 E40.79559
G1 X111.300 Y101.740 E40.90070
G1 X110.954 Y101.600 F7800.000
G1 X109.865 Y100.000 F7800.000
G1 X90.135 Y100.000 E43.03266 F1022.557
G1 Z1.200 F7800.000
G1 X110.179 Y100.679 F7800.000
G1 X89.821 Y100.679 E44.09626 F3067.670
G1 X89.821 Y99.321 E44.16720
G1 X110.179 Y99.321 E45.23080
G1 X110.179 Y100.619 E45.29862
G1 X110.807 Y101.307 F7800.000
G1 X89.193 Y101.307 E46.42787 F3067.670
G1 X89.193 Y98.693 E46.56447
G1 X110.807 Y98.693 E47.69372
G1 X110.807 Y101.247 E47.82719
G1 X111.300 Y101.800 F7800.000
G1 X88.700 Y101.800 E48.49821 F1533.835
G1 X88.700 Y98.200 E48.60510
G1 X111.300 Y98.200 E49.27612
G1 X111.300 Y101.740 E49.38123
G1 X110.954 Y101.600 F7800.000
G1 X109.865 Y100.000 F7800.000
G1 X90.135 Y100.000 E51.51318 F1022.557
G1 Z1.400 F7800.000
G1 X110.179 Y100.679 F7800.000
G1 X89.821 Y100.679 E52.57678 F3067.670
G1 X89.821 Y99.321 E52.64773
G1 X110.179 Y99.321 E53.71133
G1 X110.179 Y100.619 E53.77914
G1 X110.807 Y101.307 F7800.000
G1 X89.193 Y101.307 E54.90840 F3067.670
G1 X89.193 Y98.693 E55.04499
G1 X110.807 Y98.693 E56.17425
G1 X110.807 Y101.247 E56.30771
G1 X111.300 Y101.800 F7800.000
G1 X88.700 Y101.800 E56.97874 F1533.835
G1 X88.700 Y98.200 E57.08562
G1 X111.300 Y98.200 E57.75665
G1 X111.300 Y101.740 E57.86175
G1 X110.954 Y101.600 F7800.000
G1 X109.865 Y100.000 F7800.000
G1 X90.135 Y100.000 E59.99371 F1022.557
G1 Z1.600 F7800.000
G1 X110.179 Y100.679 F7800.000
G1 X89.821 Y100.679 E61.05731 F3067.670
G1 X89.821 Y99.321 E61.12826
G1 X110.179 Y99.321 E62.19186
G1 X110.179 Y100.619 E62.25967
G1 X110.807 Y101.307 F7800.000
G1 X89.193 Y101.307 E63.38892 F3067.670
G1 X89.193 Y98.693 E63.52552
G1 X110.807 Y98.693 E64.65477
G1 X110.807 Y101.247 E64.78824
G1 X111.300 Y101.800 F7800.000
G1 X88.700 Y101.800 E65.45926 F1533.835
G1 X88.700 Y98.200 E65.56615
G1 X111.300 Y98.200 E66.23717
G1 X111.300 Y101.740 E66.34228
G1 X110.954 Y101.600 F7800.000
G1 X109.865 Y100.000 F7800.000
G1 X90.135 Y100.000 E68.47424 F1022.557
G1 Z1.800 F7800.000
G1 X110.179 Y100.679 F7800.000
G1 X89.821 Y100.679 E69.53784 F3067.670
G1 X89.821 Y99.321 E69.60878
G1 X110.179 Y99.321 E70.67238
G1 X110.179 Y100.619 E70.74020
G1 X110.807 Y101.307 F7800.000
G1 X89.193 Y101.307 E71.86945 F3067.670
G1 X89.193 Y98.693 E72.00605
G1 X110.807 Y98.693 E73.13530
G1 X110.807 Y101.247 E73.26877
G1 X111.300 Y101.800 F7800.000
G1 X88.700 Y101.800 E73.93979 F1533.835
G1 X88.700 Y98.200 E74.04668
G1 X111.300 Y98.200 E74.71770
G1 X111.300 Y101.740 E74.82281
G1 X110.954 Y101.600 F7800.000
G1 X109.865 Y100.000 F7800.000
G1 X90.135 Y100.000 E76.95476 F1022.557
G1 Z2.000 F7800.000
G1 E75.95476 F2100.00000
G92 E0
G1 X110.179 Y100.679 F7800.000
G1 E1.00000 F2100.00000
G1 X89.821 Y100.679 E2.06360 F3067.670
G1 X89.821 Y99.321 E2.13455
G1 X110.179 Y99.321 E3.19815
G1 X110.179 Y100.619 E3.26596
G1 X110.807 Y101.307 F7800.000
G1 X89.193 Y101.307 E4.39521 F3067.670
G1 X89.193 Y98.693 E4.53181
G1 X110.807 Y98.693 E5.66106
G1 X110.807 Y101.247 E5.79453
G1 X111.300 Y101.800 F7800.000
G1 X88.700 Y101.800 E6.46555 F1533.835
G1 X88.700 Y98.200 E6.57244
G1 X111.300 Y98.200 E7.24346
G1 X111.300 Y101.740 E7.34857
G1 X110.954 Y101.600 F7800.000
G1 E6.34857 F2100.00000
G92 E0
G1 X109.865 Y100.000 F7800.000
G1 E1.00000 F2100.00000
G1 X90.135 Y100.000 E3.13196 F1022.557
G1 E2.13196 F2100.00000
G92 E0
M107
M104 S0 ; turn off temperature
G28 X0  ; home X axis
M84     ; disable motors

; filament used = 87.2mm (0.2cm3)

; avoid_crossing_perimeters = 0
; bed_shape = 0x0,200x0,200x200,0x200
; bed_temperature = 60
; before_layer_gcode = 
; bridge_acceleration = 0
; bridge_fan_speed = 100
; brim_width = 0
; complete_objects = 0
; cooling = 1
; default_acceleration = 0
; disable_fan_first_layers = 3
; duplicate_distance = 6
; end_gcode = M104 S0 ; turn off temperature\nG28 X0  ; home X axis\nM84     ; disable motors\n
; extruder_clearance_height = 20
; extruder_clearance_radius = 20
; extruder_offset = 0x0
; extrusion_axis = E
; extrusion_multiplier = 1
; fan_always_on = 0
; fan_below_layer_time = 60
; filament_colour = #FFFFFF
; filament_diameter = 1.75
; first_layer_acceleration = 0
; first_layer_bed_temperature = 65
; first_layer_extrusion_width = 200%
; first_layer_speed = 30
; first_layer_temperature = 205
; gcode_arcs = 0
; gcode_comments = 0
; gcode_flavor = reprap
; infill_acceleration = 0
; infill_first = 0
; layer_gcode = 
; max_fan_speed = 100
; max_print_speed = 80
; max_volumetric_speed = 0
; min_fan_speed = 35
; min_print_speed = 10
; min_skirt_length = 0
; notes = 
; nozzle_diameter = 0.4
; only_retract_when_crossing_perimeters = 1
; ooze_prevention = 0
; output_filename_format = [input_filename_base].gcode
; perimeter_acceleration = 0
; post_process = 
; pressure_advance = 0
; resolution = 0
; retract_before_travel = 2
; retract_layer_change = 0
; retract_length = 1
; retract_length_toolchange = 10
; retract_lift = 0
; retract_restart_extra = 0
; retract_restart_extra_toolchange = 0
; retract_speed = 35
; skirt_distance = 6
; skirt_height = 1
; skirts = 1
; slowdown_below_layer_time = 5
; spiral_vase = 0
; standby_temperature_delta = -5
; start_gcode = G28 ; home all axes\nG1 Z5 F5000 ; lift nozzle\n
; temperature = 200
; threads = 2
; toolchange_gcode = 
; travel_speed = 130
; use_firmware_retraction = 0
; use_relative_e_distances = 0
; use_volumetric_e = 0
; vibration_limit = 0
; wipe = 0
; z_offset = 0
; dont_support_bridges = 1
; extrusion_width = 0
; first_layer_height = 0.2
; infill_only_where_needed = 0
; interface_shells = 0
; layer_height = 0.2
; raft_layers = 0
; seam_position = aligned
; support_material = 1
; support_material_angle = 0
; support_material_contact_distance = 0.2
; support_material_enforce_layers = 0
; support_material_extruder = 1
; support_material_extrusion_width = 0
; support_material_interface_extruder = 1
; support_material_interface_layers = 3
; support_material_interface_spacing = 0
; support_material_interface_speed = 100%
; support_material_pattern = pillars
; support_material_spacing = 2.5
; support_material_speed = 60
; support_material_threshold = 0
; xy_size_compensation = 0
; bottom_solid_layers = 3
; bridge_flow_ratio = 1
; bridge_speed = 60
; external_fill_pattern = rectilinear
; external_perimeter_extrusion_width = 0
; external_perimeter_speed = 50%
; external_perimeters_first = 0
; extra_perimeters = 1
; fill_angle = 45
; fill_density = 20%
; fill_pattern = honeycomb
; gap_fill_speed = 20
; infill_every_layers = 1
; infill_extruder = 1
; infill_extrusion_width = 0
; infill_overlap = 15%
; infill_speed = 80
; overhangs = 1
; perimeter_extruder = 1
; perimeter_extrusion_width = 0
; perimeter_speed = 60
; perimeters = 3
; small_perimeter_speed = 15
; solid_infill_below_area = 70
; solid_infill_every_layers = 0
; solid_infill_extruder = 1
; solid_infill_extrusion_width = 0
; solid_infill_speed = 20
; thin_walls = 1
; top_infill_extrusion_width = 0
; top_solid_infill_speed = 15
; top_solid_layers = 3
