; generated by Slic3r 1.2.9 on 2018-11-05 at 16:56:17

; external perimeters extrusion width = 0.40mm
; perimeters extrusion width = 0.67mm
; infill extrusion width = 0.67mm
; solid infill extrusion width = 0.67mm
; top infill extrusion width = 0.67mm
; support material extrusion width = 0.40mm

M107
M190 S65 ; set bed temperature
M104 S205 ; set temperature
G28 ; home all axes
G1 Z5 F5000 ; lift nozzle

M109 S205 ; wait for temperature to be reached
G21 ; set units to millimeters
G90 ; use absolute coordinates
M82 ; use absolute distances for extrusion
G92 E0
G1 Z0.200 F7800.000
G1 E-1.00000 F2100.00000
G92 E0
G1 X81.879 Y80.884 F7800.000
G1 E1.00000 F2100.00000
G1 X82.376 Y80.425 E1.02009 F1800.000
G1 X83.957 Y79.114 E1.08107
G1 X84.558 Y78.662 E1.10339
G1 X86.332 Y77.486 E1.16660
G1 X86.915 Y77.142 E1.18669
G1 X88.805 Y76.161 E1.24990
G1 X89.421 Y75.881 E1.26999
G1 X91.403 Y75.106 E1.33320
G1 X92.046 Y74.893 E1.35329
G1 X94.100 Y74.333 E1.41650
G1 X94.761 Y74.190 E1.43659
G1 X96.863 Y73.851 E1.49980
G1 X97.536 Y73.779 E1.51989
G1 X99.662 Y73.666 E1.58311
G1 X100.338 Y73.666 E1.60319
G1 X102.464 Y73.779 E1.66641 F1800.000
G1 X103.137 Y73.851 E1.68649
G1 X105.239 Y74.190 E1.74971
G1 X105.900 Y74.333 E1.76980
G1 X107.954 Y74.893 E1.83301
G1 X108.597 Y75.106 E1.85310
G1 X110.579 Y75.881 E1.91631
G1 X111.195 Y76.161 E1.93640
G1 X113.085 Y77.142 E1.99961
G1 X113.668 Y77.486 E2.01970
G1 X115.379 Y78.621 E2.08067
G1 X115.985 Y79.066 E2.10300
G1 X117.624 Y80.425 E2.16621
G1 X118.121 Y80.884 E2.18630
G1 X119.606 Y82.409 E2.24951
G1 X120.052 Y82.918 E2.26960
G1 X121.366 Y84.593 E2.33281
G1 X121.755 Y85.147 E2.35290
G1 X122.884 Y86.951 E2.41611
G1 X123.212 Y87.543 E2.43620
G1 X124.143 Y89.458 E2.49941
G1 X124.406 Y90.081 E2.51950
G1 X125.129 Y92.084 E2.58271
G1 X125.324 Y92.732 E2.60280
G1 X125.829 Y94.800 E2.66601
G1 X125.955 Y95.465 E2.68610
G1 X126.237 Y97.575 E2.74931
G1 X126.291 Y98.249 E2.76940
G1 X126.348 Y100.377 E2.83261
G1 X126.330 Y101.054 E2.85270
G1 X126.160 Y103.176 E2.91591
G1 X126.070 Y103.847 E2.93600
G1 X125.676 Y105.939 E2.99922
G1 X125.515 Y106.596 E3.01930
G1 X124.900 Y108.634 E3.08251
G1 X124.671 Y109.271 E3.10260
G1 X123.843 Y111.232 E3.16581
G1 X123.547 Y111.841 E3.18591
G1 X122.516 Y113.703 E3.24912
G1 X122.157 Y114.277 E3.26921
G1 X120.933 Y116.019 E3.33242
G1 X120.515 Y116.551 E3.35251
G1 X119.113 Y118.153 E3.41572
G1 X118.641 Y118.638 E3.43581
G1 X117.132 Y120.031 E3.49678
G1 X116.556 Y120.514 E3.51911
G1 X114.847 Y121.783 E3.58232
G1 X114.283 Y122.157 E3.60241
G1 X112.449 Y123.238 E3.66562
G1 X111.849 Y123.550 E3.68571
G1 X109.910 Y124.430 E3.74892
G1 X109.280 Y124.676 E3.76901
G1 X107.259 Y125.345 E3.83222
G1 X106.606 Y125.523 E3.85231
G1 X104.599 Y125.957 E3.91329
G1 X103.857 Y126.081 E3.93561
G1 X101.740 Y126.307 E3.99882
G1 X101.064 Y126.343 E4.01891
G1 X98.936 Y126.343 E4.08212
G1 X98.260 Y126.307 E4.10221
G1 X96.143 Y126.081 E4.16542
G1 X95.475 Y125.973 E4.18551
G1 X93.468 Y125.539 E4.24648
G1 X92.741 Y125.345 E4.26881
G1 X90.720 Y124.676 E4.33202
G1 X90.090 Y124.430 E4.35211
G1 X88.151 Y123.550 E4.41532
G1 X87.551 Y123.238 E4.43541
G1 X85.717 Y122.157 E4.49862
G1 X85.153 Y121.783 E4.51871
G1 X83.444 Y120.514 E4.58192
G1 X82.923 Y120.082 E4.60201
G1 X81.359 Y118.638 E4.66522
G1 X80.887 Y118.153 E4.68531
G1 X79.485 Y116.551 E4.74852
G1 X79.067 Y116.019 E4.76861
G1 X77.843 Y114.277 E4.83182
G1 X77.484 Y113.703 E4.85191
G1 X76.453 Y111.841 E4.91512
G1 X76.157 Y111.232 E4.93521
G1 X75.329 Y109.271 E4.99842
G1 X75.100 Y108.634 E5.01851
G1 X74.485 Y106.596 E5.08173
G1 X74.324 Y105.939 E5.10182
G1 X73.930 Y103.847 E5.16503
G1 X73.840 Y103.176 E5.18512
G1 X73.676 Y101.129 E5.24609
G1 X73.652 Y100.377 E5.26841
G1 X73.709 Y98.249 E5.33162
G1 X73.763 Y97.575 E5.35171
G1 X74.045 Y95.465 E5.41493
G1 X74.171 Y94.800 E5.43501
G1 X74.676 Y92.732 E5.49822
G1 X74.871 Y92.084 E5.51832
G1 X75.594 Y90.081 E5.58153
G1 X75.857 Y89.458 E5.60162
G1 X76.788 Y87.543 E5.66483
G1 X77.116 Y86.951 E5.68492
G1 X78.245 Y85.146 E5.74813
G1 X78.634 Y84.593 E5.76822
G1 X79.948 Y82.918 E5.83143
G1 X80.394 Y82.409 E5.85152
G1 X81.837 Y80.927 E5.91295
G1 E4.91295 F2100.00000
G92 E0
G1 X113.305 Y113.319 F7800.000
G1 E1.00000 F2100.00000
G1 X111.731 Y114.725 E1.06265 F1800.000
G1 X110.010 Y115.946 E1.12530
G1 X108.164 Y116.966 E1.18795
G1 X106.214 Y117.774 E1.25059
G1 X104.187 Y118.358 E1.31324
G1 X102.107 Y118.711 E1.37589
G1 X100.000 Y118.830 E1.43854
G1 X97.893 Y118.711 E1.50119
G1 X95.813 Y118.358 E1.56384
G1 X93.786 Y117.774 E1.62649
G1 X91.836 Y116.966 E1.68913
G1 X89.989 Y115.946 E1.75178
G1 X88.269 Y114.725 E1.81443
G1 X86.695 Y113.319 E1.87708
G1 X85.289 Y111.746 E1.93973
G1 X84.068 Y110.025 E2.00238
G1 X83.048 Y108.178 E2.06503
G1 X82.240 Y106.229 E2.12767
G1 X81.656 Y104.201 E2.19032
G1 X81.303 Y102.121 E2.25297
G1 X81.184 Y100.014 E2.31562
G1 X81.303 Y97.907 E2.37827
G1 X81.656 Y95.827 E2.44092
G1 X82.240 Y93.800 E2.50357
G1 X83.048 Y91.850 E2.56621
G1 X84.068 Y90.004 E2.62886
G1 X85.289 Y88.283 E2.69151
G1 X86.695 Y86.710 E2.75416
G1 X88.269 Y85.304 E2.81681
G1 X89.989 Y84.083 E2.87946
G1 X91.836 Y83.062 E2.94211
G1 X93.786 Y82.254 E3.00475
G1 X95.813 Y81.670 E3.06740
G1 X97.893 Y81.317 E3.13005
G1 X100.000 Y81.199 E3.19270 F1800.000
G1 X102.107 Y81.317 E3.25535
G1 X104.187 Y81.670 E3.31800
G1 X106.214 Y82.254 E3.38065
G1 X108.164 Y83.062 E3.44329
G1 X110.011 Y84.083 E3.50594
G1 X111.731 Y85.304 E3.56859
G1 X113.305 Y86.710 E3.63124
G1 X114.711 Y88.283 E3.69389
G1 X115.932 Y90.004 E3.75654
G1 X116.952 Y91.850 E3.81919
G1 X117.760 Y93.800 E3.88183
G1 X118.344 Y95.827 E3.94448
G1 X118.697 Y97.907 E4.00713
G1 X118.816 Y100.014 E4.06978
G1 X118.697 Y102.121 E4.13243
G1 X118.344 Y104.201 E4.19508
G1 X117.760 Y106.229 E4.25773
G1 X116.952 Y108.178 E4.32037
G1 X115.932 Y110.025 E4.38302
G1 X114.711 Y111.746 E4.44567
G1 X113.345 Y113.274 E4.50654
G1 X113.052 Y113.066 F7800.000
G1 X111.508 Y114.445 E4.56800 F1800.000
G1 X109.820 Y115.643 E4.62945
G1 X108.009 Y116.644 E4.69091
G1 X106.096 Y117.436 E4.75237
G1 X104.107 Y118.009 E4.81383
G1 X102.067 Y118.356 E4.87529
G1 X100.000 Y118.472 E4.93674
G1 X97.933 Y118.356 E4.99820
G1 X95.893 Y118.009 E5.05966
G1 X93.904 Y117.436 E5.12112
G1 X91.991 Y116.644 E5.18257
G1 X90.180 Y115.643 E5.24403
G1 X88.492 Y114.445 E5.30549
G1 X86.948 Y113.066 E5.36695
G1 X85.569 Y111.523 E5.42841
G1 X84.371 Y109.834 E5.48986
G1 X83.370 Y108.023 E5.55132
G1 X82.578 Y106.110 E5.61278
G1 X82.005 Y104.121 E5.67424
G1 X81.658 Y102.081 E5.73569
G1 X81.542 Y100.014 E5.79715
G1 X81.658 Y97.948 E5.85861
G1 X82.005 Y95.907 E5.92007
G1 X82.578 Y93.918 E5.98153
G1 X83.370 Y92.006 E6.04298
G1 X84.371 Y90.194 E6.10444
G1 X85.569 Y88.506 E6.16590
G1 X86.948 Y86.962 E6.22736
G1 X88.492 Y85.583 E6.28881
G1 X90.180 Y84.385 E6.35027
G1 X91.991 Y83.384 E6.41173
G1 X93.904 Y82.592 E6.47319
G1 X95.893 Y82.019 E6.53465
G1 X97.933 Y81.672 E6.59610
G1 X100.000 Y81.556 E6.65756 F1800.000
G1 X102.067 Y81.672 E6.71902
G1 X104.107 Y82.019 E6.78048
G1 X106.096 Y82.592 E6.84193
G1 X108.009 Y83.384 E6.90339
G1 X109.820 Y84.385 E6.96485
G1 X111.508 Y85.583 E7.02631
G1 X113.052 Y86.962 E7.08777
G1 X114.431 Y88.506 E7.14922
G1 X115.629 Y90.194 E7.21068
G1 X116.630 Y92.006 E7.27214
G1 X117.422 Y93.918 E7.33360
G1 X117.995 Y95.907 E7.39505
G1 X118.342 Y97.948 E7.45651
G1 X118.458 Y100.014 E7.51797
G1 X118.342 Y102.081 E7.57943
G1 X117.995 Y104.121 E7.64089
G1 X117.422 Y106.110 E7.70234
G1 X116.630 Y108.023 E7.76380
G1 X115.629 Y109.834 E7.82526
G1 X114.431 Y111.523 E7.88672
G1 X113.092 Y113.021 E7.94639
G1 X112.799 Y112.813 F7800.000
G1 X111.285 Y114.166 E8.00666 F1800.000
G1 X109.630 Y115.340 E8.06693
G1 X107.853 Y116.322 E8.12719
G1 X105.978 Y117.099 E8.18746
G1 X104.028 Y117.661 E8.24773
G1 X102.027 Y118.001 E8.30799
G1 X100.000 Y118.114 E8.36826
G1 X97.973 Y118.001 E8.42853
G1 X95.972 Y117.661 E8.48880
G1 X94.022 Y117.099 E8.54906
G1 X92.147 Y116.322 E8.60933
G1 X90.370 Y115.340 E8.66960
G1 X88.715 Y114.166 E8.72986
G1 X87.201 Y112.813 E8.79013
G1 X85.849 Y111.300 E8.85040
G1 X84.674 Y109.644 E8.91066
G1 X83.692 Y107.868 E8.97093
G1 X82.915 Y105.992 E9.03120
G1 X82.353 Y104.042 E9.09147
G1 X82.013 Y102.041 E9.15173
G1 X81.900 Y100.014 E9.21200
G1 X82.013 Y97.988 E9.27227
G1 X82.353 Y95.986 E9.33253
G1 X82.915 Y94.036 E9.39280
G1 X83.692 Y92.161 E9.45307
G1 X84.674 Y90.384 E9.51333
G1 X85.849 Y88.729 E9.57360
G1 X87.201 Y87.215 E9.63387
G1 X88.715 Y85.863 E9.69414
G1 X90.370 Y84.688 E9.75440
G1 X92.147 Y83.706 E9.81467
G1 X94.022 Y82.930 E9.87494
G1 X95.972 Y82.368 E9.93520
G1 X97.973 Y82.028 E9.99547
G1 X100.000 Y81.914 E10.05574 F1800.000
G1 X102.027 Y82.028 E10.11600
G1 X104.028 Y82.368 E10.17627
G1 X105.978 Y82.930 E10.23654
G1 X107.853 Y83.706 E10.29680
G1 X109.630 Y84.688 E10.35707
G1 X111.285 Y85.863 E10.41734
G1 X112.799 Y87.215 E10.47761
G1 X114.151 Y88.729 E10.53787
G1 X115.326 Y90.384 E10.59814
G1 X116.308 Y92.161 E10.65841
G1 X117.085 Y94.036 E10.71867
G1 X117.647 Y95.986 E10.77894
G1 X117.987 Y97.988 E10.83921
G1 X118.100 Y100.014 E10.89947
G1 X117.987 Y102.041 E10.95974
G1 X117.647 Y104.042 E11.02001
G1 X117.085 Y105.992 E11.08028
G1 X116.308 Y107.868 E11.14054
G1 X115.326 Y109.644 E11.20081
G1 X114.151 Y111.300 E11.26108
G1 X112.839 Y112.768 E11.31956
G1 X112.895 Y113.201 F7800.000
G1 X113.458 Y113.527 F7800.000
G1 X112.181 Y114.706 E11.37118 F1800.000
G1 X110.550 Y115.918 E11.43149
G1 X108.800 Y116.949 E11.49181
G1 X106.950 Y117.788 E11.55212
G1 X105.021 Y118.426 E11.61244
G1 X103.036 Y118.856 E11.67276
G1 X101.016 Y119.072 E11.73307
G1 X98.984 Y119.072 E11.79339
G1 X96.964 Y118.856 E11.85371
G1 X95.051 Y118.442 E11.91184
G1 X93.049 Y117.788 E11.97437
G1 X91.200 Y116.949 E12.03464
G1 X89.450 Y115.918 E12.09496
G1 X87.819 Y114.706 E12.15527
G1 X86.327 Y113.328 E12.21559
G1 X84.989 Y111.799 E12.27591
G1 X83.821 Y110.137 E12.33622
G1 X82.837 Y108.360 E12.39654
G1 X82.047 Y106.488 E12.45685
G1 X81.461 Y104.543 E12.51717
G1 X81.084 Y102.547 E12.57749
G1 X80.922 Y100.522 E12.63780
G1 X80.976 Y98.491 E12.69812
G1 X81.246 Y96.478 E12.75844
G1 X81.728 Y94.505 E12.81875
G1 X82.417 Y92.594 E12.87907
G1 X83.273 Y90.833 E12.93720
G1 X84.384 Y89.043 E12.99974
G1 X85.638 Y87.447 E13.06000
G1 X87.055 Y85.991 E13.12032
G1 X88.619 Y84.695 E13.18064
G1 X90.311 Y83.572 E13.24095
G1 X92.114 Y82.635 E13.30127
G1 X94.006 Y81.895 E13.36158
G1 X95.966 Y81.361 E13.42190
G1 X97.971 Y81.038 E13.48222
G1 X100.000 Y80.930 E13.54253
G1 X101.955 Y81.034 E13.60066
G1 X104.036 Y81.361 E13.66320 F1800.000
G1 X105.994 Y81.895 E13.72347
G1 X107.886 Y82.635 E13.78379
G1 X109.689 Y83.572 E13.84410
G1 X111.381 Y84.695 E13.90442
G1 X112.945 Y85.991 E13.96473
G1 X114.362 Y87.447 E14.02505
G1 X115.617 Y89.045 E14.08537
G1 X116.694 Y90.767 E14.14568
G1 X117.583 Y92.594 E14.20600
G1 X118.247 Y94.435 E14.26413
G1 X118.754 Y96.480 E14.32667
G1 X119.024 Y98.491 E14.38693
G1 X119.078 Y100.522 E14.44725
G1 X118.916 Y102.547 E14.50757
G1 X118.539 Y104.543 E14.56788
G1 X117.953 Y106.488 E14.62820
G1 X117.163 Y108.360 E14.68851
G1 X116.179 Y110.137 E14.74883
G1 X115.011 Y111.799 E14.80915
G1 X113.673 Y113.328 E14.86946
G1 X113.502 Y113.486 E14.87638
G1 X113.700 Y113.789 F7800.000
G1 X112.409 Y114.981 E14.92856 F1800.000
G1 X110.748 Y116.216 E14.99001
G1 X108.965 Y117.266 E15.05146
G1 X107.080 Y118.121 E15.11290
G1 X105.115 Y118.771 E15.17435
G1 X103.093 Y119.209 E15.23579
G1 X101.035 Y119.429 E15.29724
G1 X98.965 Y119.429 E15.35869
G1 X96.907 Y119.209 E15.42013
G1 X94.957 Y118.787 E15.47937
G1 X92.919 Y118.121 E15.54304
G1 X91.035 Y117.266 E15.60446
G1 X89.252 Y116.216 E15.66591
G1 X87.591 Y114.981 E15.72735
G1 X86.071 Y113.578 E15.78880
G1 X84.708 Y112.020 E15.85024
G1 X83.518 Y110.327 E15.91169
G1 X82.515 Y108.516 E15.97314
G1 X81.711 Y106.610 E16.03458
G1 X81.113 Y104.628 E16.09603
G1 X80.730 Y102.595 E16.15748
G1 X80.565 Y100.532 E16.21892
G1 X80.620 Y98.463 E16.28037
G1 X80.895 Y96.412 E16.34182
G1 X81.386 Y94.401 E16.40326
G1 X82.088 Y92.455 E16.46471
G1 X82.960 Y90.660 E16.52395
G1 X84.091 Y88.838 E16.58762
G1 X85.368 Y87.211 E16.64903
G1 X86.812 Y85.729 E16.71048
G1 X88.405 Y84.408 E16.77193
G1 X90.130 Y83.264 E16.83337
G1 X91.966 Y82.309 E16.89482
G1 X93.894 Y81.556 E16.95627
G1 X95.890 Y81.011 E17.01771
G1 X97.933 Y80.682 E17.07916
G1 X100.000 Y80.572 E17.14060
G1 X101.992 Y80.678 E17.19985
G1 X104.111 Y81.012 E17.26351 F1800.000
G1 X106.106 Y81.556 E17.32493
G1 X108.034 Y82.309 E17.38638
G1 X109.870 Y83.264 E17.44782
G1 X111.595 Y84.408 E17.50927
G1 X113.188 Y85.729 E17.57072
G1 X114.632 Y87.211 E17.63216
G1 X115.910 Y88.839 E17.69361
G1 X117.007 Y90.593 E17.75506
G1 X117.912 Y92.455 E17.81650
G1 X118.589 Y94.332 E17.87574
G1 X119.106 Y96.413 E17.93941
G1 X119.380 Y98.463 E18.00083
G1 X119.435 Y100.532 E18.06227
G1 X119.270 Y102.595 E18.12372
G1 X118.887 Y104.628 E18.18517
G1 X118.289 Y106.610 E18.24661
G1 X117.485 Y108.516 E18.30806
G1 X116.482 Y110.327 E18.36951
G1 X115.292 Y112.020 E18.43095
G1 X113.929 Y113.578 E18.49240
G1 X113.744 Y113.749 E18.49988
G1 X113.942 Y114.052 F7800.000
G1 X112.637 Y115.257 E18.55263 F1800.000
G1 X110.945 Y116.514 E18.61520
G1 X109.129 Y117.583 E18.67778
G1 X107.210 Y118.454 E18.74036
G1 X105.209 Y119.116 E18.80293
G1 X103.149 Y119.562 E18.86551
G1 X101.054 Y119.786 E18.92809
G1 X98.946 Y119.786 E18.99066
G1 X96.851 Y119.562 E19.05324
G1 X94.864 Y119.132 E19.11359
G1 X92.789 Y118.454 E19.17839
G1 X90.870 Y117.583 E19.24096
G1 X89.055 Y116.514 E19.30353
G1 X87.363 Y115.257 E19.36611
G1 X85.814 Y113.827 E19.42869
G1 X84.426 Y112.241 E19.49126
G1 X83.215 Y110.516 E19.55384
G1 X82.194 Y108.673 E19.61641
G1 X81.374 Y106.731 E19.67899
G1 X80.766 Y104.713 E19.74157
G1 X80.375 Y102.642 E19.80414
G1 X80.207 Y100.541 E19.86672
G1 X80.263 Y98.434 E19.92930
G1 X80.543 Y96.346 E19.99187
G1 X81.043 Y94.298 E20.05445
G1 X81.758 Y92.316 E20.11703
G1 X82.647 Y90.488 E20.17738
G1 X83.798 Y88.633 E20.24218
G1 X85.099 Y86.976 E20.30474
G1 X86.570 Y85.466 E20.36732
G1 X88.192 Y84.121 E20.42990
G1 X89.948 Y82.956 E20.49247
G1 X91.819 Y81.984 E20.55505
G1 X93.781 Y81.216 E20.61763
G1 X95.815 Y80.662 E20.68020
G1 X97.895 Y80.327 E20.74278
G1 X100.000 Y80.214 E20.80535
G1 X102.030 Y80.323 E20.86571
G1 X104.186 Y80.662 E20.93051 F1800.000
G1 X106.219 Y81.216 E20.99307
G1 X108.181 Y81.984 E21.05565
G1 X110.052 Y82.956 E21.11822
G1 X111.808 Y84.121 E21.18080
G1 X113.430 Y85.466 E21.24338
G1 X114.901 Y86.976 E21.30595
G1 X116.202 Y88.634 E21.36853
G1 X117.320 Y90.420 E21.43111
G1 X118.242 Y92.316 E21.49368
G1 X118.931 Y94.228 E21.55404
G1 X119.457 Y96.346 E21.61883
G1 X119.737 Y98.434 E21.68140
G1 X119.793 Y100.541 E21.74398
G1 X119.625 Y102.642 E21.80655
G1 X119.234 Y104.713 E21.86913
G1 X118.626 Y106.731 E21.93171
G1 X117.806 Y108.673 E21.99428
G1 X116.785 Y110.516 E22.05686
G1 X115.573 Y112.241 E22.11943
G1 X114.186 Y113.827 E22.18201
G1 X113.986 Y114.011 E22.19006
G1 X113.560 Y113.933 F7800.000
G1 Z0.200 F7800.000
M104 S200 ; set temperature
M140 S60 ; wait for bed temperature to be reached
G1 Z0.400 F7800.000
G1 X113.006 Y113.021 F7800.000
G1 X111.468 Y114.395 E22.29783 F3600.000
G1 X109.786 Y115.589 E22.40559
G1 X107.981 Y116.586 E22.51336
G1 X106.075 Y117.376 E22.62112
G1 X104.093 Y117.947 E22.72889
G1 X102.059 Y118.292 E22.83665
G1 X100.000 Y118.408 E22.94442
G1 X97.941 Y118.292 E23.05218
G1 X95.907 Y117.947 E23.15995
G1 X93.925 Y117.376 E23.26772
G1 X92.019 Y116.586 E23.37548
G1 X90.214 Y115.589 E23.48325
G1 X88.532 Y114.395 E23.59101
G1 X86.994 Y113.021 E23.69878
G1 X85.619 Y111.483 E23.80654
G1 X84.426 Y109.800 E23.91431
G1 X83.428 Y107.995 E24.02207
G1 X82.638 Y106.089 E24.12984
G1 X82.067 Y104.107 E24.23760
G1 X81.722 Y102.074 E24.34537
G1 X81.606 Y100.014 E24.45313
G1 X81.722 Y97.955 E24.56090
G1 X82.067 Y95.921 E24.66867
G1 X82.638 Y93.939 E24.77643
G1 X83.428 Y92.033 E24.88420
G1 X84.426 Y90.228 E24.99196
G1 X85.619 Y88.546 E25.09973
G1 X86.994 Y87.008 E25.20749
G1 X88.532 Y85.633 E25.31526
G1 X90.214 Y84.440 E25.42302
G1 X92.019 Y83.442 E25.53079
G1 X93.925 Y82.653 E25.63855
G1 X95.907 Y82.082 E25.74632
