; generated by Slic3r 1.2.9 on 2018-11-05 at 12:16:26

; external perimeters extrusion width = 0.40mm
; perimeters extrusion width = 0.67mm
; infill extrusion width = 0.67mm
; solid infill extrusion width = 0.67mm
; top infill extrusion width = 0.67mm
; support material extrusion width = 0.40mm

M107
M190 S65 ; set bed temperature
M104 S205 ; set temperature
G28 ; home all axes
G1 Z5 F5000 ; lift nozzle

M109 S205 ; wait for temperature to be reached
G21 ; set units to millimeters
G90 ; use absolute coordinates
M82 ; use absolute distances for extrusion
G92 E0
G1 Z0.200 F7800.000
G1 E-2.00000 F2400.00000
G92 E0
G1 X91.979 Y69.208 F7800.000
G1 E2.00000 F2400.00000
G1 X93.866 Y67.990 E2.06669 F1800.000
G1 X96.316 Y67.499 E2.14091
G1 X103.506 Y67.499 E2.35437
G1 X105.717 Y67.895 E2.42107
G1 X107.652 Y69.036 E2.48776 F1800.000
G1 X108.821 Y70.368 E2.54038
G1 X109.274 Y71.058 E2.56489
G1 X110.155 Y73.125 E2.63159
G1 X110.315 Y74.445 E2.67108
G1 X110.460 Y83.731 E2.94683
G1 X110.449 Y84.198 E2.96068
G1 X108.031 Y124.906 E4.17149
G1 X107.504 Y127.089 E4.23818
G1 X106.250 Y128.953 E4.30487
G1 X104.426 Y130.264 E4.37157
G1 X101.685 Y130.886 E4.45502
G1 X98.315 Y130.886 E4.55509
G1 X96.104 Y130.489 E4.62178
G1 X94.169 Y129.348 E4.68848
G1 X92.752 Y127.605 E4.75517
G1 X91.969 Y124.909 E4.83852
G1 X89.554 Y84.631 E6.03657
G1 X89.542 Y84.185 E6.04981
G1 X89.690 Y74.293 E6.34358
G1 X90.364 Y71.545 E6.42757
G1 X90.633 Y71.007 E6.44543
G1 X91.943 Y69.257 E6.51034
G1 E4.51034 F2400.00000
G92 E0
G1 X100.771 Y123.614 F7800.000
G1 E2.00000 F2400.00000
G1 X99.229 Y123.614 E2.04578 F1800.000
G1 X99.229 Y122.614 E2.07547
G1 X100.771 Y122.614 E2.12125
G1 X100.771 Y123.554 E2.14916
G1 X101.128 Y123.972 F7800.000
G1 X98.872 Y123.972 E2.21615 F1800.000
G1 X98.872 Y122.257 E2.26705
G1 X101.128 Y122.257 E2.33403
G1 X101.128 Y123.912 E2.38315
G1 X101.485 Y124.329 F7800.000
G1 X98.515 Y124.329 E2.47133 F1800.000
G1 X98.515 Y121.900 E2.54344
G1 X101.485 Y121.900 E2.63162
G1 X101.485 Y124.269 E2.70194
G1 X101.139 Y124.129 F7800.000
G1 X100.563 Y123.014 F7800.000
G1 X100.372 Y122.822 E2.71252 F1800.000
G1 X100.292 Y123.407 E2.73555
G1 X99.708 Y122.822 E2.76782
G1 X99.437 Y123.215 E2.78646
G1 X99.628 Y123.407 E2.79703
G1 E0.79703 F2400.00000
G92 E0
G1 X101.128 Y98.143 F7800.000
G1 E2.00000 F2400.00000
G1 X98.872 Y98.143 E2.06698 F1800.000
G1 X98.872 Y97.257 E2.09328
G1 X101.128 Y97.257 E2.16027
G1 X101.128 Y98.083 E2.18479
G1 X101.485 Y98.500 F7800.000
G1 X98.515 Y98.500 E2.27297 F1800.000
G1 X98.515 Y96.900 E2.32048
G1 X101.485 Y96.900 E2.40867
G1 X101.485 Y98.440 E2.45439
G1 X101.139 Y98.300 F7800.000
G1 X100.949 Y97.700 F7800.000
G1 X99.051 Y97.700 E2.57393 F1800.000
G1 Z0.200 F7800.000
G1 E0.57393 F2400.00000
G92 E0
G1 X101.202 Y84.828 F7800.000
G1 E2.00000 F2400.00000
G1 X101.682 Y83.871 E2.03179 F1800.000
G1 X100.437 Y84.760 E2.07720
G1 X101.682 Y82.277 E2.15967
G1 X101.682 Y80.683 E2.20699
G1 X99.646 Y84.744 E2.34186
G1 X98.810 Y84.818 E2.36678
G1 X101.072 Y80.306 E2.51666
G1 X101.357 Y79.737 F7800.000
G1 X101.682 Y79.089 E2.53818 F1800.000
G1 X101.682 Y77.495 E2.58550
G1 X97.916 Y85.008 E2.83499
G1 X97.001 Y85.240 E2.86304
G1 X101.682 Y75.902 E3.17319
G1 X101.682 Y74.308 E3.22051
G1 X98.960 Y79.737 E3.40084
G1 X98.675 Y80.306 F7800.000
G1 X96.141 Y85.361 E3.56875 F1800.000
G1 X95.899 Y84.251 E3.60249
G1 X97.877 Y80.306 E3.73352
G1 X98.162 Y79.737 F7800.000
G1 X101.109 Y73.856 E3.92886 F1800.000
G1 X100.311 Y73.856 E3.95258
G1 X97.363 Y79.737 E4.14791
G1 X97.078 Y80.306 F7800.000
G1 X95.916 Y82.624 E4.22490 F1800.000
G1 X95.942 Y80.978 F7800.000
G1 X96.279 Y80.306 E4.24721 F1800.000
G1 X96.564 Y79.737 F7800.000
G1 X99.512 Y73.856 E4.44255 F1800.000
G1 X98.713 Y73.856 E4.46627
G1 X95.968 Y79.332 E4.64813
G1 X95.994 Y77.686 F7800.000
G1 X97.914 Y73.856 E4.77533 F1800.000
G1 X97.115 Y73.856 E4.79905
G1 X96.021 Y76.040 E4.87158
G1 X96.047 Y74.394 F7800.000
G1 X96.316 Y73.856 E4.88945 F1800.000
G1 E2.88945 F2400.00000
G92 E0
G1 X102.707 Y73.856 F7800.000
G1 E2.00000 F2400.00000
G1 X102.146 Y74.976 E2.03720 F1800.000
G1 X102.146 Y76.570 E2.08453
G1 X103.506 Y73.856 E2.17466
G1 X103.959 Y74.546 E2.19918
G1 X102.146 Y78.163 E2.31932
G1 X102.146 Y79.757 E2.36665
G1 X103.983 Y76.091 E2.48842
G1 X104.008 Y77.636 E2.53430
G1 X102.146 Y81.351 E2.65770
G1 X102.146 Y82.945 E2.70502
G1 X104.032 Y79.181 E2.83005
G1 X104.057 Y80.725 E2.87592
G1 X102.146 Y84.539 E3.00257
G1 X102.625 Y85.177 E3.02626
G1 X104.081 Y82.270 E3.12279
G1 X104.103 Y83.821 E3.16882
G1 X103.409 Y85.206 E3.21484
M104 S200 ; set temperature
M140 S60 ; wait for bed temperature to be reached
G1 Z0.400 F7800.000
G1 E1.21484 F2400.00000
G92 E0
G1 X102.561 Y122.393 F7800.000
G1 E2.00000 F2400.00000
G1 X102.561 Y123.836 E2.07539 F900.000
G1 X101.885 Y123.836 E2.11070
G1 X98.115 Y123.836 E2.30767 F900.000
G1 X97.439 Y123.836 E2.34298 F900.000
G1 X97.439 Y122.393 E2.41837
G1 X98.115 Y122.393 E2.45368
G1 X101.885 Y122.393 E2.65065 F900.000
G1 X102.501 Y122.393 E2.68283 F900.000
G1 X103.054 Y121.900 F7800.000
G1 X103.054 Y124.329 E2.80970 F900.000
G1 X101.885 Y124.329 E2.87075
G1 X98.115 Y124.329 E2.98269 F900.000
G1 X96.946 Y124.329 E3.04374 F900.000
G1 X96.946 Y121.900 E3.17061
G1 X98.115 Y121.900 E3.23166
G1 X101.885 Y121.900 E3.34360 F900.000
G1 X102.994 Y121.900 E3.40152 F900.000
G1 X102.247 Y123.114 F7800.000
G1 X97.753 Y123.114 E3.88708 F1200.000
G1 E1.88708 F2400.00000
G92 E0
G1 X102.561 Y98.007 F7800.000
G1 E2.00000 F2400.00000
G1 X101.885 Y98.007 E2.03531 F900.000
G1 X98.115 Y98.007 E2.23228 F900.000
G1 X97.439 Y98.007 E2.26759 F900.000
G1 X97.439 Y97.393 E2.29970
G1 X98.115 Y97.393 E2.33501
G1 X101.885 Y97.393 E2.53198 F900.000
G1 X102.561 Y97.393 E2.56729 F900.000
G1 X102.561 Y97.947 E2.59626
G1 X103.054 Y98.500 F7800.000
G1 X101.885 Y98.500 E2.65731 F900.000
G1 X98.115 Y98.500 E2.76925 F900.000
G1 X96.946 Y98.500 E2.83030 F900.000
G1 X96.946 Y96.900 E2.91390
G1 X98.115 Y96.900 E2.97495
G1 X101.885 Y96.900 E3.08689 F900.000
G1 X103.054 Y96.900 E3.14794 F900.000
G1 X103.054 Y98.440 E3.22840
G1 Z0.500 F7800.000
G1 E1.22840 F2400.00000
G92 E0
G1 X98.064 Y84.865 F7800.000
G1 E2.00000 F2400.00000
G1 X98.064 Y83.971 E2.03740 F3600.000
G1 X95.965 Y83.971 E2.12523
G1 X95.980 Y85.336 E2.18234
G1 X97.066 Y84.860 E2.23199
G1 X97.069 Y85.140 E2.24371
G1 X98.064 Y84.865 E2.28690
G1 X97.728 Y84.607 F7800.000
G1 X97.728 Y84.307 E2.29944 F3600.000
G1 X96.304 Y84.307 E2.35903
G1 X96.308 Y84.663 E2.37394
G1 X96.678 Y84.663 E2.38943
G1 X97.396 Y84.349 E2.42224
G1 X97.400 Y84.663 E2.43541
G1 X97.515 Y84.663 E2.44024
G1 X97.728 Y84.607 E2.44947
G1 E0.44947 F2400.00000
G92 E0
G1 X100.449 Y79.630 F7800.000
G1 E2.00000 F2400.00000
G1 X100.448 Y79.557 E2.00306 F3600.000
G1 X99.815 Y79.557 E2.02955
G1 X100.467 Y80.685 E2.08408
G1 X100.449 Y79.630 E2.12825
G1 X100.785 Y79.625 F7800.000
G1 X100.778 Y79.221 E2.14513 F3600.000
G1 X99.222 Y79.221 E2.21030
G1 X99.185 Y81.453 E2.30372
G1 X100.807 Y81.005 E2.37416
G1 X100.785 Y79.625 E2.43196
G1 E0.43196 F2400.00000
G92 E0
G1 X103.663 Y81.449 F7800.000
G1 E2.00000 F2400.00000
G1 X103.578 Y76.092 E2.22428 F3600.000
G1 X102.549 Y76.092 E2.26735
G1 X102.549 Y81.449 E2.49160
G1 X103.663 Y81.449 E2.53823
G1 X103.701 Y83.812 F7800.000
G1 X103.669 Y81.806 E2.62222 F3600.000
G1 X102.549 Y81.806 E2.66909
G1 X102.549 Y84.680 E2.78940
G1 X102.600 Y84.694 E2.79161
G1 X102.604 Y84.349 E2.80605
G1 X103.690 Y84.825 E2.85570
G1 X103.701 Y83.812 E2.89807
G1 X104.036 Y83.811 F7800.000
G1 X103.880 Y73.971 E3.31003 F3600.000
G1 X102.214 Y73.971 E3.37979
G1 X102.214 Y84.938 E3.83887
G1 X102.931 Y85.140 E3.87006
G1 X102.934 Y84.860 E3.88178
G1 X104.020 Y85.336 E3.93143
G1 X104.036 Y83.811 E3.99524
G1 X103.572 Y75.735 F7800.000
G1 X103.550 Y74.307 E4.05501 F3600.000
G1 X102.549 Y74.307 E4.09690
G1 X102.549 Y75.735 E4.15667
G1 X103.572 Y75.735 E4.19950
G1 E2.19950 F2400.00000
G92 E0
G1 X98.064 Y76.071 F7800.000
G1 E2.00000 F2400.00000
G1 X98.064 Y73.971 E2.08791 F3600.000
G1 X96.120 Y73.971 E2.16927
G1 X96.087 Y76.071 E2.25719
G1 X98.064 Y76.071 E2.33995
G1 Z0.600 F7800.000
G1 E0.33995 F2400.00000
G92 E0
G1 X103.674 Y122.393 F7800.000
G1 E2.00000 F2400.00000
G1 X103.674 Y123.836 E2.07539 F900.000
G1 X103.454 Y123.836 E2.08689
G1 X96.546 Y123.836 E2.44776 F900.000
G1 X96.326 Y123.836 E2.45926 F900.000
G1 X96.326 Y122.393 E2.53465
G1 X96.546 Y122.393 E2.54615
G1 X103.454 Y122.393 E2.90702 F900.000
G1 X103.614 Y122.393 E2.91538 F900.000
G1 X104.166 Y121.900 F7800.000
G1 X104.166 Y124.329 E3.04226 F900.000
G1 X103.454 Y124.329 E3.07950
G1 X96.546 Y124.329 E3.28458 F900.000
G1 X95.834 Y124.329 E3.32182 F900.000
G1 X95.834 Y121.900 E3.44870
G1 X96.546 Y121.900 E3.48594
G1 X103.454 Y121.900 E3.69102 F900.000
G1 X104.106 Y121.900 E3.72513 F900.000
G1 X103.360 Y123.114 F7800.000
G1 X96.640 Y123.114 E4.45119 F1200.000
G1 E2.45119 F2400.00000
G92 E0
G1 X103.674 Y98.007 F7800.000
G1 E2.00000 F2400.00000
G1 X103.454 Y98.007 E2.01150 F900.000
G1 X96.546 Y98.007 E2.37237 F900.000
G1 X96.326 Y98.007 E2.38387 F900.000
G1 X96.326 Y97.393 E2.41598
G1 X96.546 Y97.393 E2.42748
G1 X103.454 Y97.393 E2.78834 F900.000
G1 X103.674 Y97.393 E2.79985 F900.000
G1 X103.674 Y97.947 E2.82882
G1 X104.166 Y98.500 F7800.000
G1 X103.454 Y98.500 E2.86606 F900.000
G1 X96.546 Y98.500 E3.07115 F900.000
G1 X95.834 Y98.500 E3.10839 F900.000
G1 X95.834 Y96.900 E3.19198
G1 X96.546 Y96.900 E3.22922
G1 X103.454 Y96.900 E3.43430 F900.000
G1 X104.166 Y96.900 E3.47155 F900.000
G1 X104.166 Y98.440 E3.55200
G1 Z0.800 F7800.000
G1 E1.55200 F2400.00000
G92 E0
G1 X104.465 Y122.393 F7800.000
G1 E2.00000 F2400.00000
G1 X104.465 Y123.836 E2.07539 F900.000
G1 X95.535 Y123.836 E2.54194
G1 X95.535 Y122.393 E2.61733
G1 X104.405 Y122.393 E3.08074
G1 X104.958 Y121.900 F7800.000
G1 X104.958 Y124.329 E3.20761 F900.000
G1 X104.566 Y124.329 E3.22805
G1 X95.434 Y124.329 E3.49922 F900.000
G1 X95.042 Y124.329 E3.51966 F900.000
G1 X95.042 Y121.900 E3.64653
G1 X95.434 Y121.900 E3.66697
G1 X104.566 Y121.900 E3.93814 F900.000
G1 X104.898 Y121.900 E3.95545 F900.000
G1 X104.151 Y123.114 F7800.000
G1 X95.849 Y123.114 E4.85251 F1200.000
G1 E2.85251 F2400.00000
G92 E0
G1 X104.465 Y98.007 F7800.000
G1 E2.00000 F2400.00000
G1 X95.535 Y98.007 E2.46655 F900.000
G1 X95.535 Y97.393 E2.49866
G1 X104.465 Y97.393 E2.96520
G1 X104.465 Y97.947 E2.99418
G1 X104.958 Y98.500 F7800.000
G1 X104.566 Y98.500 E3.01462 F900.000
G1 X95.434 Y98.500 E3.28578 F900.000
G1 X95.042 Y98.500 E3.30622 F900.000
G1 X95.042 Y96.900 E3.38982
G1 X95.434 Y96.900 E3.41026
G1 X104.566 Y96.900 E3.68142 F900.000
G1 X104.958 Y96.900 E3.70186 F900.000
G1 X104.958 Y98.440 E3.78232
G1 Z0.800 F7800.000
G1 E1.78232 F2400.00000
G92 E0
G1 X104.036 Y83.811 F7800.000
G1 E2.00000 F2400.00000
G1 X103.880 Y73.971 E2.41196 F3600.000
G1 X102.214 Y73.971 E2.48172
G1 X102.214 Y84.938 E2.94080
G1 X102.931 Y85.140 E2.97199
G1 X102.934 Y84.860 E2.98371
G1 X104.020 Y85.336 E3.03335
G1 X104.036 Y83.811 E3.09716
G1 X103.701 Y83.812 F7800.000
G1 X103.669 Y81.806 E3.18115 F3600.000
G1 X102.549 Y81.806 E3.22802
G1 X102.549 Y84.680 E3.34834
G1 X102.600 Y84.694 E3.35054
G1 X102.604 Y84.349 E3.36498
G1 X103.690 Y84.825 E3.41463
G1 X103.701 Y83.812 E3.45701
G1 X103.663 Y81.449 F7800.000
G1 X103.578 Y76.092 E3.68128 F3600.000
G1 X102.549 Y76.092 E3.72435
G1 X102.549 Y81.449 E3.94860
G1 X103.663 Y81.449 E3.99524
G1 E1.99524 F2400.00000
G92 E0
G1 X100.785 Y79.625 F7800.000
G1 E2.00000 F2400.00000
G1 X100.778 Y79.221 E2.01688 F3600.000
G1 X99.222 Y79.221 E2.08206
G1 X99.185 Y81.453 E2.17547
G1 X100.807 Y81.005 E2.24592
G1 X100.785 Y79.625 E2.30371
G1 X100.449 Y79.630 F7800.000
G1 X100.448 Y79.557 E2.30677 F3600.000
G1 X99.815 Y79.557 E2.33327
G1 X100.467 Y80.685 E2.38779
G1 X100.449 Y79.630 E2.43196
G1 E0.43196 F2400.00000
G92 E0
G1 X98.064 Y76.071 F7800.000
G1 E2.00000 F2400.00000
G1 X98.064 Y73.971 E2.08791 F3600.000
G1 X96.120 Y73.971 E2.16927
G1 X96.087 Y76.071 E2.25719
G1 X98.064 Y76.071 E2.33995
G1 E0.33995 F2400.00000
G92 E0
G1 X103.572 Y75.735 F7800.000
G1 E2.00000 F2400.00000
G1 X103.550 Y74.307 E2.05978 F3600.000
G1 X102.549 Y74.307 E2.10166
G1 X102.549 Y75.735 E2.16143
G1 X103.572 Y75.735 E2.20426
G1 E0.20426 F2400.00000
G92 E0
G1 X97.728 Y84.607 F7800.000
G1 E2.00000 F2400.00000
G1 X97.728 Y84.307 E2.01254 F3600.000
G1 X96.304 Y84.307 E2.07213
G1 X96.308 Y84.663 E2.08704
G1 X96.678 Y84.663 E2.10253
G1 X97.396 Y84.349 E2.13534
G1 X97.400 Y84.663 E2.14851
G1 X97.515 Y84.663 E2.15334
G1 X97.728 Y84.607 E2.16256
G1 X98.064 Y84.865 F7800.000
G1 X98.064 Y83.971 E2.19996 F3600.000
G1 X95.965 Y83.971 E2.28780
G1 X95.980 Y85.336 E2.34491
G1 X97.066 Y84.860 E2.39455
G1 X97.069 Y85.140 E2.40627
G1 X98.064 Y84.865 E2.44947
M106 S244.8
G1 Z1.000 F7800.000
G1 E0.44947 F2400.00000
G92 E0
G1 X105.120 Y122.393 F7800.000
G1 E2.00000 F2400.00000
G1 X105.120 Y123.836 E2.07539 F900.000
G1 X94.880 Y123.836 E2.61037
G1 X94.880 Y122.393 E2.68576
G1 X105.060 Y122.393 E3.21761
G1 X105.613 Y121.900 F7800.000
M106 S255
G1 X105.613 Y124.329 E3.34448 F900.000
G1 X105.358 Y124.329 E3.35780
M106 S244.8
G1 X94.642 Y124.329 E3.67595 F900.000
M106 S255
G1 X94.387 Y124.329 E3.68927 F900.000
G1 X94.387 Y121.900 E3.81614
G1 X94.642 Y121.900 E3.82946
M106 S244.8
G1 X105.358 Y121.900 E4.14762 F900.000
M106 S255
G1 X105.553 Y121.900 E4.15780 F900.000
M106 S244.8
G1 X104.806 Y123.114 F7800.000
G1 X95.194 Y123.114 E5.19641 F1200.000
G1 E3.19641 F2400.00000
G92 E0
G1 X105.120 Y98.007 F7800.000
G1 E2.00000 F2400.00000
G1 X94.880 Y98.007 E2.53498 F900.000
G1 X94.880 Y97.393 E2.56709
G1 X105.120 Y97.393 E3.10207
G1 X105.120 Y97.947 E3.13104
G1 X105.613 Y98.500 F7800.000
M106 S255
G1 X105.358 Y98.500 E3.14436 F900.000
M106 S244.8
G1 X94.642 Y98.500 E3.46252 F900.000
M106 S255
G1 X94.387 Y98.500 E3.47584 F900.000
G1 X94.387 Y96.900 E3.55943
G1 X94.642 Y96.900 E3.57275
M106 S244.8
G1 X105.358 Y96.900 E3.89090 F900.000
M106 S255
G1 X105.613 Y96.900 E3.90422 F900.000
G1 X105.613 Y98.440 E3.98468
M106 S244.8
G1 Z1.100 F7800.000
G1 E1.98468 F2400.00000
G92 E0
G1 X104.036 Y83.811 F7800.000
G1 E2.00000 F2400.00000
G1 X103.880 Y73.971 E2.41196 F3600.000
G1 X102.214 Y73.971 E2.48172
G1 X102.214 Y84.938 E2.94080
G1 X102.931 Y85.140 E2.97199
G1 X102.934 Y84.860 E2.98371
G1 X104.020 Y85.336 E3.03335
G1 X104.036 Y83.811 E3.09716
G1 X103.701 Y83.812 F7800.000
G1 X103.669 Y81.806 E3.18115 F3600.000
G1 X102.549 Y81.806 E3.22802
G1 X102.549 Y84.680 E3.34834
G1 X102.600 Y84.694 E3.35054
G1 X102.604 Y84.349 E3.36498
G1 X103.690 Y84.825 E3.41463
G1 X103.701 Y83.812 E3.45701
G1 X103.663 Y81.449 F7800.000
G1 X103.578 Y76.092 E3.68128 F3600.000
G1 X102.549 Y76.092 E3.72435
G1 X102.549 Y81.449 E3.94860
G1 X103.663 Y81.449 E3.99524
G1 E1.99524 F2400.00000
G92 E0
G1 X100.785 Y79.625 F7800.000
G1 E2.00000 F2400.00000
G1 X100.778 Y79.221 E2.01688 F3600.000
G1 X99.222 Y79.221 E2.08206
G1 X99.185 Y81.453 E2.17547
G1 X100.807 Y81.005 E2.24592
G1 X100.785 Y79.625 E2.30371
G1 X100.449 Y79.630 F7800.000
G1 X100.448 Y79.557 E2.30677 F3600.000
G1 X99.815 Y79.557 E2.33327
G1 X100.467 Y80.685 E2.38779
G1 X100.449 Y79.630 E2.43196
G1 E0.43196 F2400.00000
G92 E0
G1 X98.064 Y76.071 F7800.000
G1 E2.00000 F2400.00000
G1 X98.064 Y73.971 E2.08791 F3600.000
G1 X96.120 Y73.971 E2.16927
G1 X96.087 Y76.071 E2.25719
G1 X98.064 Y76.071 E2.33995
G1 E0.33995 F2400.00000
G92 E0
G1 X103.572 Y75.735 F7800.000
G1 E2.00000 F2400.00000
G1 X103.550 Y74.307 E2.05978 F3600.000
G1 X102.549 Y74.307 E2.10166
G1 X102.549 Y75.735 E2.16143
G1 X103.572 Y75.735 E2.20426
G1 E0.20426 F2400.00000
G92 E0
G1 X97.728 Y84.607 F7800.000
G1 E2.00000 F2400.00000
G1 X97.728 Y84.307 E2.01254 F3600.000
G1 X96.304 Y84.307 E2.07213
G1 X96.308 Y84.663 E2.08704
G1 X96.678 Y84.663 E2.10253
G1 X97.396 Y84.349 E2.13534
G1 X97.400 Y84.663 E2.14851
G1 X97.515 Y84.663 E2.15334
G1 X97.728 Y84.607 E2.16256
G1 X98.064 Y84.865 F7800.000
G1 X98.064 Y83.971 E2.19996 F3600.000
G1 X95.965 Y83.971 E2.28780
G1 X95.980 Y85.336 E2.34491
G1 X97.066 Y84.860 E2.39455
G1 X97.069 Y85.140 E2.40627
G1 X98.064 Y84.865 E2.44947
G1 Z1.200 F7800.000
