; generated by Slic3r 1.2.9 on 2018-11-02 at 17:40:40

; external perimeters extrusion width = 0.40mm
; perimeters extrusion width = 0.67mm
; infill extrusion width = 0.67mm
; solid infill extrusion width = 0.67mm
; top infill extrusion width = 0.67mm
; support material extrusion width = 0.40mm

M107
M190 S65 ; set bed temperature
M104 S205 ; set temperature
G28 ; home all axes
G1 Z5 F5000 ; lift nozzle

M109 S205 ; wait for temperature to be reached
G21 ; set units to millimeters
G90 ; use absolute coordinates
M82 ; use absolute distances for extrusion
G92 E0
G1 Z0.200 F7800.000
G1 E-2.00000 F2400.00000
G92 E0
G1 X91.203 Y69.908 F7800.000
G1 E2.00000 F2400.00000
G1 X92.675 Y68.212 E2.06669 F1800.000
G1 X94.646 Y67.134 E2.13339
G1 X96.664 Y66.805 E2.19410
G1 X103.853 Y66.805 E2.40756
G1 X106.064 Y67.202 E2.47426
G1 X107.999 Y68.343 E2.54095 F1800.000
G1 X109.177 Y69.688 E2.59405
G1 X124.991 Y93.922 E3.45322
G1 X125.866 Y95.991 E3.51992
G1 X126.024 Y97.396 E3.56191
G1 X126.024 Y122.898 E4.31908
G1 X125.350 Y125.746 E4.40599
G1 X124.778 Y126.886 E4.44386
G1 X123.433 Y128.685 E4.51055
G1 X121.546 Y129.904 E4.57725
G1 X119.527 Y130.380 E4.63885
G1 X102.116 Y131.565 E5.15697
G1 X101.685 Y131.579 E5.16979
G1 X98.315 Y131.579 E5.26985
G1 X97.391 Y131.512 E5.29736
G1 X80.479 Y129.028 E5.80490
G1 X79.664 Y128.853 E5.82962
G1 X78.965 Y128.654 E5.85121
G1 X76.947 Y127.668 E5.91790
G1 X75.398 Y126.041 E5.98460
G1 X74.511 Y123.978 E6.05129
G1 X74.346 Y122.539 E6.09428
G1 X74.346 Y100.225 E6.75680
G1 X75.020 Y97.377 E6.84371
G1 X75.889 Y95.642 E6.90132
G1 X76.111 Y95.237 E6.91505
G1 X91.172 Y69.960 E7.78868
G1 E5.78868 F2400.00000
G92 E0
G1 X101.128 Y124.665 F7800.000
G1 E2.00000 F2400.00000
G1 X98.872 Y124.665 E2.06698 F1800.000
G1 X98.872 Y123.779 E2.09328
G1 X101.128 Y123.779 E2.16027
G1 X101.128 Y124.605 E2.18479
G1 X101.485 Y125.022 F7800.000
G1 X98.515 Y125.022 E2.27297 F1800.000
G1 X98.515 Y123.422 E2.32048
G1 X101.485 Y123.422 E2.40867
G1 X101.485 Y124.962 E2.45439
G1 X101.139 Y124.822 F7800.000
G1 X100.949 Y124.222 F7800.000
G1 X99.051 Y124.222 E2.57393 F1800.000
G1 E0.57393 F2400.00000
G92 E0
G1 X101.128 Y97.449 F7800.000
G1 E2.00000 F2400.00000
G1 X98.872 Y97.449 E2.06698 F1800.000
G1 X98.872 Y96.564 E2.09328
G1 X101.128 Y96.564 E2.16027
G1 X101.128 Y97.389 E2.18479
G1 X101.485 Y97.807 F7800.000
G1 X98.515 Y97.807 E2.27297 F1800.000
G1 X98.515 Y96.207 E2.32048
G1 X101.485 Y96.207 E2.40867
G1 X101.485 Y97.747 E2.45439
G1 X101.139 Y97.607 F7800.000
G1 X100.949 Y97.007 F7800.000
G1 X99.051 Y97.007 E2.57393 F1800.000
G1 Z0.200 F7800.000
G1 E0.57393 F2400.00000
G92 E0
G1 X97.393 Y84.457 F7800.000
G1 E2.00000 F2400.00000
G1 X99.822 Y79.612 E2.16092 F1800.000
G1 X100.107 Y79.044 F7800.000
G1 X103.055 Y73.162 E2.35626 F1800.000
G1 X102.256 Y73.162 E2.37997
G1 X99.308 Y79.044 E2.57531
G1 X99.023 Y79.612 F7800.000
G1 X96.594 Y84.459 E2.73628 F1800.000
G1 X95.963 Y84.123 E2.75749
G1 X98.224 Y79.612 E2.90732
G1 X98.509 Y79.044 F7800.000
G1 X101.457 Y73.162 E3.10265 F1800.000
G1 X100.658 Y73.162 E3.12637
G1 X95.971 Y82.514 E3.43697
G1 X95.980 Y80.902 F7800.000
G1 X99.859 Y73.162 E3.69402 F1800.000
G1 X99.060 Y73.162 E3.71774
G1 X97.153 Y76.967 E3.84413
G1 X96.689 Y76.299 F7800.000
G1 X96.006 Y77.662 E3.88940 F1800.000
G1 X96.689 Y77.893 E3.91081
G1 X95.993 Y79.282 E3.95693
G1 X97.610 Y79.244 F7800.000
G1 X97.745 Y78.975 E3.96585 F1800.000
G1 E1.96585 F2400.00000
G92 E0
G1 X100.621 Y79.612 F7800.000
G1 E2.00000 F2400.00000
G1 X98.310 Y84.223 E2.15313 F1800.000
G1 X99.188 Y84.064 E2.17964
G1 X101.420 Y79.612 E2.32750
G1 X101.704 Y79.044 F7800.000
G1 X103.971 Y74.522 E2.47768 F1800.000
G1 X103.853 Y73.162 E2.51820
G1 X100.906 Y79.044 E2.71353
G1 X102.218 Y79.612 F7800.000
G1 X100.006 Y84.027 E2.86015 F1800.000
G1 X100.780 Y84.076 E2.88319
G1 X103.017 Y79.612 E3.03143
G1 X103.302 Y79.044 F7800.000
G1 X103.987 Y77.677 E3.07682 F1800.000
G1 X103.979 Y76.099 E3.12366
G1 X102.503 Y79.044 E3.22145
G1 X103.816 Y79.612 F7800.000
G1 X101.513 Y84.208 E3.37409 F1800.000
G1 X102.236 Y84.359 E3.39603
G1 X104.010 Y80.818 E3.51361
G1 X104.023 Y82.386 E3.56016
G1 X103.034 Y84.360 E3.62570
G1 X104.036 Y83.954 E3.65781
G1 X103.702 Y84.622 E3.67998
G1 E1.67998 F2400.00000
G92 E0
G1 X97.153 Y75.374 F7800.000
G1 E2.00000 F2400.00000
G1 X98.262 Y73.162 E2.07345 F1800.000
G1 X97.463 Y73.162 E2.09717
G1 X97.153 Y73.780 E2.11768
G1 X96.664 Y73.162 F7800.000
G1 X96.032 Y74.423 E2.15957 F1800.000
G1 X96.689 Y74.706 E2.18082
G1 X96.019 Y76.043 E2.22523
G1 E0.22523 F2400.00000
G92 E0
G1 X83.592 Y99.244 F7800.000
G1 E2.00000 F2400.00000
G1 X83.964 Y98.502 E2.02463 F1800.000
G1 X83.170 Y98.491 E2.04819
G1 X82.793 Y99.244 E2.07319
G1 X81.994 Y99.244 E2.09691
G1 X82.371 Y98.491 E2.12191
G1 X81.573 Y98.491 E2.14563
G1 X81.195 Y99.244 E2.17063
G1 X80.703 Y100.225 F7800.000
G1 X81.011 Y99.612 E2.19100 F1800.000
G1 X81.809 Y99.612 E2.21472
G1 X80.703 Y101.819 E2.28803
G1 X80.703 Y103.413 E2.33535
G1 X82.608 Y99.612 E2.46159
G1 X83.407 Y99.612 E2.48531
G1 X80.703 Y105.007 E2.66449
G1 X80.703 Y106.601 E2.71181
G1 X84.001 Y100.020 E2.93036
G1 X84.001 Y101.614 E2.97769
G1 X80.703 Y108.195 E3.19624
G1 X81.077 Y109.044 E3.22378
G1 X84.001 Y103.208 E3.41760
G1 X84.001 Y104.802 E3.46492
G1 X81.875 Y109.044 E3.60580
G1 X82.674 Y109.044 E3.62952
G1 X84.001 Y106.396 E3.71747
G1 X84.001 Y107.989 E3.76479
G1 X83.473 Y109.044 E3.79980
G1 X81.590 Y109.612 F7800.000
G1 X80.703 Y111.382 E3.85860 F1800.000
G1 X80.703 Y112.976 E3.90592
G1 X82.389 Y109.612 E4.01765
G1 X83.188 Y109.612 E4.04137
G1 X80.703 Y114.570 E4.20603
G1 X80.703 Y116.164 E4.25335
G1 X83.978 Y109.630 E4.47035
G1 X84.001 Y111.177 E4.51628
G1 X80.703 Y117.758 E4.73484
G1 X80.858 Y119.044 E4.77329
G1 X84.001 Y112.771 E4.98162
G1 X84.001 Y114.365 E5.02894
G1 X81.656 Y119.044 E5.18433
G1 X82.455 Y119.044 E5.20805
G1 X84.001 Y115.959 E5.31051
G1 X84.001 Y117.552 E5.35783
G1 X83.254 Y119.044 E5.40736
G1 E3.40736 F2400.00000
G92 E0
G1 X80.703 Y120.945 F7800.000
G1 E2.00000 F2400.00000
G1 X81.472 Y119.412 E2.05093 F1800.000
G1 X82.271 Y119.412 E2.07464
G1 X80.703 Y122.539 E2.17851
G1 X81.402 Y122.738 E2.20009
G1 X83.069 Y119.412 E2.31055
G1 X83.868 Y119.412 E2.33427
G1 X82.454 Y122.233 E2.42797
G1 E0.42797 F2400.00000
G92 E0
G1 X118.149 Y122.738 F7800.000
G1 E2.00000 F2400.00000
G1 X119.667 Y119.710 E2.10056 F1800.000
G1 X119.667 Y118.116 E2.14789
G1 X117.350 Y122.738 E2.30139
G1 X116.551 Y122.738 E2.32510
G1 X119.667 Y116.522 E2.53154
G1 X119.667 Y114.928 E2.57886
G1 X116.429 Y121.388 E2.79339
G1 X116.429 Y119.794 E2.84071
G1 X119.667 Y113.335 E3.05524
G1 X119.667 Y111.741 E3.10256
G1 X116.429 Y118.200 E3.31709
G1 X116.429 Y116.606 E3.36441
G1 X119.667 Y110.147 E3.57894
G1 X119.667 Y108.553 E3.62627
G1 X116.429 Y115.012 E3.84079
G1 X116.429 Y113.419 E3.88812
G1 X119.667 Y106.959 E4.10264
G1 X119.667 Y105.365 E4.14997
G1 X116.429 Y111.825 E4.36449
G1 X116.429 Y110.231 E4.41182
G1 X119.667 Y103.772 E4.62635
G1 X119.667 Y102.178 E4.67367
G1 X116.429 Y108.637 E4.88820
G1 X116.429 Y107.043 E4.93552
G1 X119.667 Y100.584 E5.15005
G1 X119.667 Y98.990 E5.19737
G1 X116.429 Y105.449 E5.41190
G1 X116.429 Y103.856 E5.45922
G1 X119.667 Y97.396 E5.67375
G1 X118.971 Y97.191 E5.69529
G1 X116.429 Y102.262 E5.86371
G1 X116.429 Y100.668 E5.91103
G1 X117.520 Y98.491 E5.98334
G1 X118.229 Y98.672 E6.00504
G1 X118.419 Y98.291 E6.01769
G1 X116.721 Y98.491 F7800.000
G1 X116.429 Y99.074 E6.03706 F1800.000
G1 X119.667 Y121.304 F7800.000
G1 X118.328 Y123.974 E6.12575 F1800.000
G1 X119.095 Y124.038 F7800.000
G1 X119.667 Y122.898 E6.16362 F1800.000
M104 S200 ; set temperature
M140 S60 ; wait for bed temperature to be reached
G1 Z0.400 F7800.000
G1 E4.16362 F2400.00000
G92 E0
G1 X102.561 Y123.915 F7800.000
G1 E2.00000 F2400.00000
G1 X102.561 Y124.530 E2.03211 F900.000
G1 X101.885 Y124.530 E2.06742
G1 X98.115 Y124.530 E2.26439 F900.000
G1 X97.439 Y124.530 E2.29970 F900.000
G1 X97.439 Y123.915 E2.33181
G1 X98.115 Y123.915 E2.36712
G1 X101.885 Y123.915 E2.56409 F900.000
G1 X102.501 Y123.915 E2.59626 F900.000
G1 X103.054 Y123.422 F7800.000
G1 X103.054 Y125.022 E2.67986 F900.000
G1 X101.885 Y125.022 E2.74091
G1 X98.115 Y125.022 E2.85285 F900.000
G1 X96.946 Y125.022 E2.91390 F900.000
G1 X96.946 Y123.422 E2.99749
G1 X98.115 Y123.422 E3.05854
G1 X101.885 Y123.422 E3.17048 F900.000
G1 X102.994 Y123.422 E3.22839 F900.000
G1 E1.22839 F2400.00000
G92 E0
G1 X102.561 Y97.314 F7800.000
G1 E2.00000 F2400.00000
G1 X101.885 Y97.314 E2.03531 F900.000
G1 X98.115 Y97.314 E2.23228 F900.000
G1 X97.439 Y97.314 E2.26759 F900.000
G1 X97.439 Y96.699 E2.29970
G1 X98.115 Y96.699 E2.33501
G1 X101.885 Y96.699 E2.53198 F900.000
G1 X102.561 Y96.699 E2.56729 F900.000
G1 X102.561 Y97.254 E2.59626
G1 X103.054 Y97.807 F7800.000
G1 X101.885 Y97.807 E2.65731 F900.000
G1 X98.115 Y97.807 E2.76925 F900.000
G1 X96.946 Y97.807 E2.83030 F900.000
G1 X96.946 Y96.207 E2.91390
G1 X98.115 Y96.207 E2.97495
G1 X101.885 Y96.207 E3.08689 F900.000
G1 X103.054 Y96.207 E3.14794 F900.000
G1 X103.054 Y97.747 E3.22840
G1 Z0.500 F7800.000
G1 E1.22840 F2400.00000
G92 E0
G1 X102.871 Y84.167 F7800.000
G1 E2.00000 F2400.00000
G1 X102.871 Y83.278 E2.03722 F3600.000
G1 X100.771 Y83.278 E2.12513
G1 X100.771 Y83.949 E2.15323
G1 X102.179 Y84.204 E2.21311
G1 X102.813 Y84.432 E2.24133
G1 X102.817 Y84.147 E2.25324
G1 X102.871 Y84.167 E2.25567
G1 X102.536 Y83.690 F7800.000
G1 X102.536 Y83.613 E2.25887 F3600.000
G1 X101.107 Y83.613 E2.31868
G1 X101.107 Y83.669 E2.32099
G1 X102.266 Y83.879 E2.37031
G1 X102.483 Y83.956 E2.37996
G1 X102.486 Y83.672 E2.39187
G1 X102.536 Y83.690 E2.39406
G1 E0.39406 F2400.00000
G92 E0
G1 X97.237 Y83.612 F7800.000
G1 E2.00000 F2400.00000
G1 X96.369 Y83.612 E2.03632 F3600.000
G1 X96.367 Y83.970 E2.05127
G1 X96.685 Y83.970 E2.06459
G1 X97.235 Y83.772 E2.08903
G1 X97.237 Y83.612 E2.09572
G1 E0.09572 F2400.00000
G92 E0
G1 X96.621 Y78.528 F7800.000
G1 E2.00000 F2400.00000
G1 X96.621 Y73.278 E2.21977 F3600.000
G1 X96.108 Y73.278 E2.24124
G1 X96.028 Y84.621 E2.71609
G1 X96.370 Y84.439 E2.73229
G1 X97.568 Y84.009 E2.78556
G1 X97.623 Y79.128 E2.98991
G1 X97.679 Y79.128 E2.99228
G1 X97.652 Y78.528 E3.01742
G1 X96.621 Y78.528 E3.06058
G1 E1.06058 F2400.00000
G92 E0
G1 X102.536 Y75.041 F7800.000
G1 E2.00000 F2400.00000
G1 X102.536 Y73.613 E2.05977 F3600.000
G1 X101.107 Y73.613 E2.11958
G1 X101.107 Y75.041 E2.17935
G1 X102.536 Y75.041 E2.23916
G1 X102.871 Y75.378 F7800.000
G1 X102.871 Y73.278 E2.32706 F3600.000
G1 X100.771 Y73.278 E2.41497
G1 X100.771 Y75.378 E2.50288
G1 X102.871 Y75.378 E2.59078
G1 E0.59078 F2400.00000
G92 E0
G1 X83.111 Y97.830 F7800.000
G1 E2.00000 F2400.00000
G1 X83.092 Y97.815 E2.00100 F3600.000
G1 X82.863 Y98.150 E2.01797
G1 X83.111 Y97.830 E2.03493
G1 X82.509 Y98.607 F7800.000
G1 X80.771 Y98.607 E2.10767 F3600.000
G1 X80.771 Y99.128 E2.12949
G1 X83.933 Y99.128 E2.26187
G1 X83.933 Y98.607 E2.28368
G1 X82.509 Y98.607 E2.34331
G1 E0.34331 F2400.00000
G92 E0
G1 X82.536 Y105.042 F7800.000
G1 E2.00000 F2400.00000
G1 X82.536 Y103.969 E2.04492 F3600.000
G1 X81.113 Y103.969 E2.10446
G1 X81.107 Y105.042 E2.14938
G1 X82.536 Y105.042 E2.20918
G1 X82.871 Y105.378 F7800.000
G1 X82.871 Y103.278 E2.29709 F3600.000
G1 X80.771 Y103.278 E2.38500
G1 X80.771 Y105.378 E2.47290
G1 X82.871 Y105.378 E2.56081
G1 E0.56081 F2400.00000
G92 E0
G1 X82.536 Y115.040 F7800.000
G1 E2.00000 F2400.00000
G1 X82.536 Y113.613 E2.05973 F3600.000
G1 X81.107 Y113.613 E2.11954
G1 X81.113 Y115.040 E2.17927
G1 X82.536 Y115.040 E2.23881
G1 X82.871 Y115.378 F7800.000
G1 X82.871 Y113.278 E2.32672 F3600.000
G1 X80.771 Y113.278 E2.41463
G1 X80.771 Y115.378 E2.50253
G1 X82.871 Y115.378 E2.59044
G1 E0.59044 F2400.00000
G92 E0
G1 X83.598 Y120.547 F7800.000
G1 E2.00000 F2400.00000
G1 X83.598 Y119.863 E2.02862 F3600.000
G1 X81.107 Y119.863 E2.13289
G1 X81.113 Y120.755 E2.17019
G1 X83.389 Y120.755 E2.26546
G1 X83.598 Y120.547 E2.27778
G1 X83.933 Y120.687 F7800.000
G1 X83.933 Y119.528 E2.32629 F3600.000
G1 X80.771 Y119.528 E2.45866
G1 X80.771 Y122.622 E2.58820
G1 X81.986 Y122.622 E2.63906
G1 X83.933 Y120.687 E2.75399
G1 X81.848 Y122.287 F7800.000
G1 X83.030 Y121.112 E2.82376 F3600.000
G1 X81.113 Y121.112 E2.90399
G1 X81.107 Y122.287 E2.95317
G1 X81.848 Y122.287 E2.98420
G1 E0.98420 F2400.00000
G92 E0
G1 X119.263 Y118.262 F7800.000
G1 E2.00000 F2400.00000
G1 X119.263 Y117.890 E2.01556 F3600.000
G1 X116.833 Y117.897 E2.11729
G1 X116.833 Y118.255 E2.13224
G1 X119.263 Y118.262 E2.23397
G1 X119.599 Y123.922 F7800.000
G1 X119.599 Y97.307 E3.34811 F3600.000
G1 X118.395 Y97.307 E3.39848
G1 X118.403 Y98.407 E3.44453
G1 X118.297 Y98.407 E3.44899
G1 X118.297 Y98.607 E3.45736
G1 X116.497 Y98.607 E3.53269
G1 X116.497 Y122.622 E4.53799
G1 X118.297 Y122.622 E4.61331
G1 X118.297 Y122.822 E4.62169
G1 X118.403 Y122.822 E4.62615
G1 X118.395 Y123.922 E4.67220
G1 X119.599 Y123.922 E4.72257
G1 X119.263 Y112.548 F7800.000
G1 X119.263 Y112.176 E4.73813 F3600.000
G1 X116.833 Y112.183 E4.83986
G1 X116.833 Y112.540 E4.85481
G1 X119.263 Y112.548 E4.95654
G1 X119.263 Y106.834 F7800.000
G1 X119.263 Y106.462 E4.97210 F3600.000
G1 X116.833 Y106.469 E5.07383
G1 X116.833 Y106.826 E5.08878
G1 X119.263 Y106.834 E5.19051
G1 X119.263 Y101.119 F7800.000
G1 X119.263 Y100.748 E5.20608 F3600.000
G1 X116.833 Y100.755 E5.30781
G1 X116.833 Y101.112 E5.32275
G1 X119.263 Y101.119 E5.42448
G1 Z0.600 F7800.000
G1 E3.42448 F2400.00000
G92 E0
G1 X103.674 Y123.915 F7800.000
G1 E2.00000 F2400.00000
G1 X103.674 Y124.530 E2.03211 F900.000
G1 X103.454 Y124.530 E2.04361
G1 X96.546 Y124.530 E2.40448 F856.077
G1 X96.326 Y124.530 E2.41598 F900.000
G1 X96.326 Y123.915 E2.44809
G1 X96.546 Y123.915 E2.45959
G1 X103.454 Y123.915 E2.82045 F856.077
G1 X103.614 Y123.915 E2.82882 F900.000
G1 X104.166 Y123.422 F7800.000
G1 X104.166 Y125.022 E2.91241 F900.000
G1 X103.454 Y125.022 E2.94965
G1 X96.546 Y125.022 E3.15474 F856.077
G1 X95.834 Y125.022 E3.19198 F900.000
G1 X95.834 Y123.422 E3.27557
G1 X96.546 Y123.422 E3.31281
G1 X103.454 Y123.422 E3.51790 F856.077
G1 X104.106 Y123.422 E3.55200 F900.000
G1 E1.55200 F2400.00000
G92 E0
G1 X103.674 Y97.314 F7800.000
G1 E2.00000 F2400.00000
G1 X103.454 Y97.314 E2.01150 F900.000
G1 X96.546 Y97.314 E2.37237 F856.077
G1 X96.326 Y97.314 E2.38387 F900.000
G1 X96.326 Y96.699 E2.41598
G1 X96.546 Y96.699 E2.42748
G1 X103.454 Y96.699 E2.78834 F856.077
G1 X103.674 Y96.699 E2.79985 F900.000
G1 X103.674 Y97.254 E2.82882
G1 X104.166 Y97.807 F7800.000
G1 X103.454 Y97.807 E2.86606 F900.000
G1 X96.546 Y97.807 E3.07115 F856.077
G1 X95.834 Y97.807 E3.10839 F900.000
G1 X95.834 Y96.207 E3.19198
G1 X96.546 Y96.207 E3.22922
G1 X103.454 Y96.207 E3.43430 F856.077
G1 X104.166 Y96.207 E3.47155 F900.000
G1 X104.166 Y97.747 E3.55200
G1 Z0.800 F7800.000
G1 E1.55200 F2400.00000
G92 E0
G1 X104.465 Y123.915 F7800.000
G1 E2.00000 F2400.00000
G1 X104.465 Y124.530 E2.03211 F900.000
G1 X95.535 Y124.530 E2.49866
G1 X95.535 Y123.915 E2.53076
G1 X104.405 Y123.915 E2.99418
G1 X104.958 Y123.422 F7800.000
G1 X104.958 Y125.022 E3.07777 F900.000
G1 X104.566 Y125.022 E3.09821
G1 X95.434 Y125.022 E3.36937 F900.000
G1 X95.042 Y125.022 E3.38982 F900.000
G1 X95.042 Y123.422 E3.47341
G1 X95.434 Y123.422 E3.49385
G1 X104.566 Y123.422 E3.76502 F900.000
G1 X104.898 Y123.422 E3.78232 F900.000
G1 E1.78232 F2400.00000
G92 E0
G1 X104.465 Y97.314 F7800.000
G1 E2.00000 F2400.00000
G1 X95.535 Y97.314 E2.46655 F900.000
G1 X95.535 Y96.699 E2.49866
G1 X104.465 Y96.699 E2.96520
G1 X104.465 Y97.254 E2.99418
G1 X104.958 Y97.807 F7800.000
G1 X104.566 Y97.807 E3.01462 F900.000
G1 X95.434 Y97.807 E3.28578 F900.000
G1 X95.042 Y97.807 E3.30622 F900.000
G1 X95.042 Y96.207 E3.38982
G1 X95.434 Y96.207 E3.41026
G1 X104.566 Y96.207 E3.68142 F900.000
G1 X104.958 Y96.207 E3.70186 F900.000
G1 X104.958 Y97.747 E3.78232
G1 Z0.800 F7800.000
G1 E1.78232 F2400.00000
G92 E0
G1 X102.871 Y84.167 F7800.000
G1 E2.00000 F2400.00000
G1 X102.871 Y83.278 E2.03722 F3600.000
G1 X100.771 Y83.278 E2.12513
G1 X100.771 Y83.949 E2.15323
G1 X102.179 Y84.204 E2.21311
G1 X102.813 Y84.432 E2.24133
G1 X102.817 Y84.147 E2.25324
G1 X102.871 Y84.167 E2.25567
